X:1
T:SOCRATE
T:Drame Symphonique en 3 Parties avec Voix Sur des dialogues de Platon traduits par Victor Cousin
T:ERIK SATIE
T:à Madame la Princesse Edmond de POLIGNAC
T:I. PORTRAIT DE SOCRATE (LE BANQUET)
T:II. BORDS DE L'ILISSUS
T:(PHÈDRE)
T:III. MORT DE SOCRATE
T:(PHÉDON)
%%score 1 { ( 2 5 6 ) | ( 3 4 ) }
L:1/8
Q:1/4=66
M:2/4
K:C
V:1 treble nm="CHANT"
V:2 treble nm="PIANO"
V:5 treble 
V:6 treble 
V:3 bass 
V:4 bass 
V:1
 z4 | z4 | z4 | z4 | z4 | z4 | z4 | z4 | z4 |"^ALCIBIADE" z4 |"^RECIT (en lisant)"!p! ^F4- | %11
w: ||||||||||Or|
 F (^F A G | ^F2) z2 |!mf! z (^F A ^c |{/c} d ^c B2 | B2) z2 | z (B, !courtesy!=C D | E2 ^F E | %18
w: , mes chers a-|mis,|a- fin de|louer Socra- *|te,|J'au rai be-|soin de com-|
 D E E2) | z4 |!mf! (G A _B c | d e e d | !courtesy!=f2 e c | d2- d) (d | c _B A G | A2) z2 | z4 | %27
w: pa rai sons:||Lui croi ra peut-|ê tre que je|veux plai san|ter ; mais|rien n'est plus sé-|rieux,||
 z4 | z!p! (^F G A | B2 ^c d | B B d e | ^f ^F G A | d2 B !courtesy!=c | e2 e e | e2 E E | E A A2 | %36
w: |Je dis d'a|bord qu'il res-|sem ble tout- à-|fait à ces Si|lé nes qu'on|voit ex po-|sés dans les|a teli ers|
 A G A2) |!mf! (c B A G | A2 B2 | ^c ^G ^F2 | (^G) B (3(B B ^F) | E2 ^F2) | (A ^G ^F2 | E D ^C2) | %44
w: des sculp teurs|et que les ar-|tis- tes|re pré sen|tent a vec u ne|flûte ou|des pipe aux|à la main,|
 z4 |!p! (B B B B | B B B2) | z (B A A | B2 B) z | z!mf! (d e e | e2 g ^f | e2 e2 | c c B B | %53
w: |et dans l'in té|rieur des quels|quand on les|ou vre,|en sé pa|rant les deux|piè ces|dont ils se com|
 B2 B) e | (d2 d2 | !tenuto!d !tenuto!d !tenuto!d !tenuto!d) |!f! (A A G G | A A B B | B2- B) z | %59
w: po sent, on|trou ve|ren fer mé es|des sta tu es|de di vi ni|tés *|
 z4 |"^a Tempo" (C D E F | G G A F | (!courtesy!=B2 G2) |!f! F G A A | B A B2) | z4 | z!p! (A G F | %67
w: |Je pré tends en|sui te quil res|sem ble|au sa ty re|Mar sy as......||Et n'es- tu|
 E D E e | A !courtesy!=B c A) | z4 | ^F2 z (F | ^D2 B,) z | z (C _D _E | F _E F2- | F _A _B c | %75
w: pas aus si jou|eur de flû te?||Oui sans|dou te,|Et bien plus|é ton nant|* que Mar sy|
 c2- c) z | (_A _B c !courtesy!=d | d c d2- | d2 D2) | (G _B A G | A2 A2 | D C D _B, | %82
w: as _|Ce lui- ci char|mait les hom|_ mes|par les bel les|cho ses|que sa bou che|
!f! C D ^F E | G D D2) | z2 z (E | ^F F ^G F | E ^F F ^C | D E ^F D | E ^F F2) | z4 | %90
w: ti rait de ses|ins tru ments|et|au tant en fait|au jourd' hui qui|con que ré pè|te ses airs;||
 (!courtesy!=G A B2 | A D{/D} E2 | ^F G A2 | B ^F ^G A | B !courtesy!=c d D | ^F B F2 | D2) z2 | %97
w: en ef fet,|ceux que jouait|O lymp os,|je les at tri|bue à Mar sy|as son maî|tre,|
 z4 | z4 | z2 z!p! (G[Q:1/4=60] | _B[Q:1/4=50] A G !courtesy!=F | G G z F | G2[Q:1/4=45] G) z | %103
w: ||La|seu le dif fé|ren ce, So|cra te,|
 z (_B, B, B, | _B, B, B, B, | _B, B, B, B, | _B,2) z2 |[Q:1/4=66] z"^a Tempo"!f! (_E _D C | %108
w: qu'il y ait|i ci ent re|Mar sy as et|toi,|c'est que sans|
 _E F G2) | z (^G A ^c | ^cB ^A2-) | (A ^G ^^F2) | z!mf! (!courtesy!=F _E E | F F G2 | G) z z2 | %115
w: ins tru ments,|a vec de|sim _ ples|* dis cours,|tu fais la|mê me cho|se.......|
 z4 | z4 | z4 | z (^C E2) | (E E E2) | z (^F D ^C | B,2 ^C B, | D E ^F F | %123
w: |||Pour moi,|mes a mis,|n’é tait la|crain te de|vous pa raî tre|
 G !courtesy!=c G !courtesy!=F | G2 G) z | z (_E F G | D C D G | _E F G G | A d{/d} A G | AG G D | %130
w: to ta le ment|i vre,|je vous at|tes te rais a|vec ser ment l'ef|fet extra or di|nai _ re que|
 F G A A | E2 D E | D F A A) | z (c _B A | E F G2 | A c _B A | F G A G | G) (_B, C D | G2 _B A | %139
w: ses dis cours m'ont|fait et me|font en co re.|En l’é cou|tant, je sens|pal pi ter mon|cœur plus for te|ment que si j’é|tais a gi|
 A c d _B | c2 C E | E2 E D | G D D2 | (^F2 ^C)) z | z2!pp! (^F F | ^F F A G | ^F ^C C2 | %147
w: té de la ma|ni e dan|san te des|co ry ban|_ tes,|ses pa|ro les font cou|ler mes lar|
 ^C) z (E ^F | B2 B ^c | ^F E F F | ^C E ^F B, | ^C C E E |{/E} ^F2- F) z | z4 | z4 | %155
w: mes, et j'en|vois un grand|nomb re d'au tres|res sen tir les|mê mes é mo|tions *|||
!mp! (D B, B, ^C | D2 D A | B2 B) z | (E G B E | E D E2 | ^F A F2 | ^F F F E | ^F2 F) z || %163
w: Tels sont les pres|ti ges qu'e|xer ce,|et sur moi et|sur bien d'au|tres la flû|te de ce sa|ty re.....|
[M:3/4] z6 | z6 | z6 | z6 |"^SOCRATE"[Q:1/4=56] z!f! (A B ^c d c | B ^c ^f2 c) z | %169
w: ||||Tu viens de fai re|mon é lo ge:|
 z!mf! (^c d e ^f g | a A B2 ^c ^f | ^c c"^molto"!>(! d e ^f!>)! g |!pp! ^f2 f) z z2 | z6 | z6 | %175
w: c’est main te nant à|moi de fai re ce|lui de mon voi sin de|droi te......|||
 z6 |][M:6/8][Q:3/8=60] z6 | z6 | z6 | z6 | z6 | z6 |"^SOCRATE" z!mf! (E ^F G E F | G E G B2) z | %184
w: |||||||Dé tour nons- nous un|peu du che min,|
 (^c B A B A G | ^F2) z!mf! (B ^c d | e3 e d ^c | B2) z!mf! (!courtesy!=c3 | d g ^f e G ^F | %189
w: et s'il te plaît, des cen|dons le long des|bords de l'I lis|sus. Là|nous tro ve rons u ne|
 E2 G- G G ^F | E3 ^F2) z | (G B d d3 | d e d c2) z | z6 |"^PHEDRE" (!courtesy!=F G A B2) z | %195
w: pla ce * so li|tai re|pour nous asse oir|où tu vou dras.||Je m'ap plau dis,|
 (c B A B2) z |!p! (A G A G F G | F E D C2 C |!mf! E2 ^F G3 | A G ^F G2 E) | z2 (c d2 B | %201
w: en vé ri té|d’ê tre sor ti au jour|d'hui sans chaus su res|car pour toi|c'est ton u sa ge.|Que donc em|
 A2 A z B A | B2 A G ^F E | ^F3 A2 A) | (B ^c d e d c | B3 A A G | A3- A2) z | (_B c d c B A | %208
w: pê che de des|cen dre dans le cou|rant mê me|et de nous baig ner les|pieds tout en mar|chant? *|Ce se rait un vrai plai|
 G2) z (F F E | D E F G2) z | (A _B c c B A | G2) z z2 z | z6 |!mf!"^SOCRATE" (^F G A B2) z | %214
w: sir, sur tout dans|cet te sai son,|et à cette heu re du|jour.||Je le veux bien;|
 (^c B A B2 ^F | E3 D E ^F | ^F2 F{/F} F3 | ^F F E F2) z |"^PHEDRE" z2!p! (_E D E F | %219
w: a van ce donc et|cher che en mê|temps un lieu|pour nous asse oir.|Vois- tu ce pla|
 G _A _B c2) z |"^SOCRATE" x2 x z2 (d | d2- d) z2 z | z6 |"^PHEDRE" z2!mf! (C D E ^F | %224
w: tane é le vé?|Eh|bien? *||Là nous trou ve|
 A2 ^F E2 E) | z!>(! (^F G A2)!>)! z | (_B c _d _e2) z |!mf! (!courtesy!=E ^F G A G A | %228
w: rons de l'om bre,|un air frais,|et du ga zon,|qui nous ser vi ra de|
{/B} B3 B2) (c | B A ^G A3 | B c d e2) z | z6 | z6 |"^SOCRATE" E2- E z2 z | z (B ^c ^F2) z | z6 | %236
w: siè ge, ou|mê me de lit|si nous vou lons.|||Va *|je te suis||
 z6 | z6 | z6 |!mf!"^PHEDRE" (_B B) (c d2 f) | z (e d f2 d | d D E F3) | (!courtesy!=B2 F A3 | %243
w: |||Dis- moi So cra te|n'est- ce pas i|ci quel que part|sur les bords|
 _B B B B2) z | z!p! (_B B B B B | _B2) (_d B2) z | z (_E E _G2 F | _E3 _D2) z | z6 | %249
w: de l’I lis sus,|que Bo rée en le|va, dit- on,|la jeune O ri|thy e?||
 z!p!"^SOCRATE" (_B A A2) z | z6 | z6 |!mf!"^PHEDRE" (D F E G2 A | c2 F E D E | G2 G) z2 z | %255
w: On le dit.|||Mais ne se rait- ce|pas dans cet en droit|mê me?|
 z2 z z z (G | G G B A A d | B3 A A A | B3 A2) z | (2:3:2(!courtesy!=c B (2:3:2A G | A3 A2) z | %261
w: car|l'eau est si bel le, si|claire et si lim|pi de,|que des jeu nes|fil les|
 (D E F G A G | A3 B2 G | c B[Q:1/4=60] A[Q:1/4=40] G2) z | %264
w: ne pou vaient trou ver un|lieu plus pro|pice à leurs jeux.|
!mf!"^SOCRATE"[Q:3/8=60] (c _d _e f e d | _e2) (_d c _B _A | _B _A G F2) z | %267
w: Ce n'est pour tant pas i|ci, mais deux ou trois|sta des plus bus,|
 (_B B _A G F !courtesy!=E | !courtesy!=D3 C2)[Q:1/4=60] z |!p! (D D D C C C | D D D C C C | %271
w: là ou l'on pas se le|fleu ve.|On y voit même un au|tel con sa cré à Bo|
 D3 C2) z | z6 | z!p!"^PHEDRE" (^F B F E F | B2 A B2) z |[Q:3/8=60] z (A B A2) (G | c3 c2) z | %277
w: ré e.||Je ne me le re|mets pas bien.|Mais dis- moi, de|grâ ce,|
 z!p! (A B c2 d | c B A B2 A- | A G ^F E3 | D2) z x3 | x4 x"^SOCRATE" (E | ^F B A B2) z | %283
w: crois- tu donc à|cette a ven tu re|* fa bu leu|se?|Mais|si j'en dou tais,|
 z (e ^d ^c A c) | z2 z (A B ^c | !courtesy!=d2 ^f e3 | ^c B c c2) z | %287
w: com me les sa vants,|je ne se|rais pas fort|em bar ras sé;|
[Q:3/8=50] (d e ^f !tenuto!^g !tenuto!f !tenuto!e |[Q:3/8=60] ^f2 ^F B2 F) | %289
w: je pour rais sub ti li|ser et di re|
 z (A[Q:3/8=50] d B2 B |[Q:3/8=60] B3 A ^F G | B e B B B B | B B2 B2) z | (A _B F{/F} f c d | %294
w: que le vent du|nord la fit tom|ber d'u ne des ro ches|voi si nes,|quand el le jouait a vec|
 f2 e d2 d) | (A _B d c A B | d) (F A G2 G | c A G c A G | c2 B c2 B) | z (F G G2 G) | %300
w: Phar ma cé e,|et que ce gen re de|mort don na lieu de|croi re qu'elle a vait é|té ra vi e|par Bo ré e;|
 z6[Q:3/8=50] | z!p!"^rit." (_B _A c B c | _B2 _A)"^a tempo"[Q:3/8=60] (_e e f | c c _B _d _D _E | %304
w: |ou bien je pour rais|di re qu' elle tom|ba du ro cher de l'A|
 F2 F F2 F) | z (!courtesy!=D D D D D | D2 D D D D | E3 E2) z | z6 | z6 | (A G c F2) z | %311
w: ré o pa ge,|car c'est là que plu|sieurs trans por tent la|scè ne......|||...Mais à pro pos|
!mf! (A !courtesy!=B B g2 d | e2 f e B A | A2) z x3 | z6 | z2 z"^PHEDRE"!p! (G2 A | B3 G2) z | z6 | %318
w: n'est- ce point là cet|arbre où tu nous con|duis?||C'est lui|mê me.||
 z6 | z6 | z"^SOCRATE"!pp! (^c B c2) z | z2 z (B ^c d | A G A B2) z | (2:3:2(G ^F (2:3:2G F | %324
w: ||Par Ju non,|le char mant|lieu de re pos!|Com me ce pla|
 (2:3:2G A (2:3:2B d | (2:3:2e ^f e2) z | (B ^c d e c B | (2:3:2A A (2:3:2A A | A A A A2) z | %329
w: tane est large et|é le vé!|Et cet a gnus- cas tus|a vec ses ra|meaux é lan cés|
 z (B A G2 ^F | E3 E2) z | z2!mf! (B A B ^c | ^c2 B A G A | B2) z (!courtesy!=c B A | B3 A2) z | %335
w: et son bel om|bra ge,|ne di rait- on|pas qu'il est tout en|fleur, pour em bau|mer l'air?|
 z2!pp! (c B A G |{/^F} F2) z z (F E | ^F2 F) z2 z | (A B c d c B | A2 A G A B | A3 A2) z | %341
w: Quoi de plus gra|cieux, je te|pri e|que cet te sour ce qui|cou le sous ce pla|ta ne,|
 (_B A G F2 G | _B3 B A G | ^F2) z z (^c B | A ^G ^F B3 | B ^c d e3 | d !courtesy!=c B A3) | %347
w: et dont nos pieds at|tes tent la fraî|cheur? Ce lieu|pour rait bien ê|tre con sa cré|à quel que nym|
 (A G A _B3 | c d e c2) z | (d c B A3 | B A G c3 | A2) z (B A G | ^F3 A2) z | z6 |!pp! B d B c3 | %355
w: phe et au fleuve|A ché lo üs,|à en ju ger|par ces fi gu|res, et ces sta|tu es.||Goûte un peu l'air|
 ^F ^f e c2 c | z6 |!ppp! (ed e d e d | e d e d e d | e d e) z2 z | z2!mf!"^subito" (^c B A B | %361
w: qu’on y res pi re:||est- * il rien de plus|sua ve et de si dé|li ci eux?|Le chant des ci|
 ^c3 B2) z | (^c d c B3 | A B ^c d2 d | ^c B A B2) z | (^c d c ^f2 e | ^f ^c B A2 A) | (B B ^c A3 | %368
w: ga les|a quel que cho|se d’a ni mé et|qui sent l’é té.|J’ai me sur tout cette|her be touf fu e|qui nous per met|
 ^F ^f!>(! g fe d)!>)! | z2!p! (d d d d | ^c c c d d d | ^c2 B) (d A B | ^c3 ^f e d | ^c3 B2 A | %374
w: de nous é ten _ dre|et de re po|ser mol le ment no tre|tê te sur ce ter|rain lé gè re|ment in cli|
 ^F2) z z2 z | z (A A A2 A) | (B B ^c A2 d | (2:3:2^c B A2 ^F) | %378
w: né.|Mon cher Phè dre,|tu ne pou vais mieux|me con dui re.|
[Q:3/8=55]!ppp! x x[Q:3/8=52] x4[Q:3/8=50][Q:3/8=47] |[Q:3/8=45] x6[Q:3/8=42][Q:3/8=40] | %380
w: ||
[Q:3/8=35] x6[Q:3/8=32][Q:3/8=30] | x6 |][M:4/4][Q:1/4=72] z8 | z8 | z8 | z8 | %386
w: ||||||
 z!p!"^PHEDON" (B d d e d c B | A2 A G A2 ^F) z | z2 z!mf! (A B d c B) | (A2 A G A d B A | %390
w: De puis la con dam na ti|on de So cra te,|nous ne man qui ons|pas un seul jour d’al ler le|
 A2 A) z!p! (B A B A | B A B2 B) z (e ^f | g G A B c d e ^f | e2) z (B B!<(! A B B!<)! | %394
w: voir. * Com me la pla|ce pub li que, où le|ju ge ment a vait é té ren|du, é tait tout près de|
 B A B2)!mf! (E ^F G A | B c d2 e d e2) | z (E D E ^F G{/G} E2) | z (E e d c B d c | %398
w: la pri son, nous nous y ras|sem bli ons le ma tin,|et là nous at ten dions,|en nous en tre te nant en|
 B2 B) (d B A B2 | A B G2 ^F2) z (E | ^F A B d d c d2 | A A B2 B) z z2 | z8 | %403
w: sem ble, que la pri son|fût ou ver te et|el le ne l'é tait ja mais|de bonne heu re.....||
!f! (E D{/E} E2) z (G ^F E | D E A2 B A G ^F | E2) z (G B B B B | B) z (B B ^c A A ^F) | %407
w: ....Le geô lier qui nous in|tro dui sait or di nai re|ment, vint au de vant de|nous, et nous dit d'at ten dre,|
 z!mf! (!courtesy!=c d c A _B c B | G2 G A G A G A | _B2 A) z z4 | z (_B d d e d c2 | %411
w: et de ne pas en trer a|vant qu'il nous ap pe lât lui-|mê me.....|....Quel ques mo ments a près,|
 _B G A B c d e2) | (e g d2) (e c !courtesy!=B2 | B ^G ^c2 c2 B B | A B e B d2 d d | %415
w: il re vint et nous ou vrit.|En en trant, nous trou vâ|mes Soc ra te qu'on ve|nait de dé liv rer de ses|
 !courtesy!=c2)!f! (c c d2 A2) | z!p!"^subito" (^F E G F2) z (A | B G B2) (e e A2 | %418
w: fers, et Xan tip pe,|tu la con nais, au|près de lui, et te nant|
 c c c c G2 c d | c2- c) z z4 | z8 | z (d e d g2 g) z | (e d c B A c d2) | z (e e d e B c d | %424
w: un de ses en fants dans ses|bras..... *||....A lors So cra te,|se met tant sur son sé ant,|pli a la jam be qu'on ve|
 e ^f g f f) z d e | e E ^F A G2 z2 | G E !courtesy!=F2 z4 | z8 | z8 | z (F f e d2 d) z | %430
w: nait de dé ga ger, la frot|ta a vec sa main,|et nous dit.....|||L'ét ran ge cho se,|
 z2 (c _B A2- A) z | (!courtesy!=B B B B B2 B2 | ^c d e ^f e2- e) z | z (e d B B !courtesy!=c d e | %434
w: mes a mis, _|que ce que les hom mes|ap pel lent plai sir, _|et comme il a de mer veil|
 d g d B A2 c d | d A A A A A A A) | z4 z2 (e c | d A B e B A G G | G G) (G G G G G2 | %439
w: leux rap ports a vec la dou|leur que l'on pré tend con trai re!....|N'est- ce|pas dans la jouis sance et la souf|fran ce que le corps sub ju|
 G G G G G2 G) z | z8 |!mf! (^c d e B c d e B | ^F !courtesy!=G A E F2 B) (A | G G d2 e g ^f d | %444
w: gue et en chaîne l'â me?.....||A grand' pei ne per su a de|rais–je aux au tres hom mes que|je ne prends point pour un mal|
 e E ^F F E E F2 | E2) z2 z (A B c | d d e2 d d d d | c c c c _e2 e) z | z4 (_B _A B c | %449
w: heur l'é tat où je me trou|ve, puis que je|ne sau rais vous le per su|a der à vous- mê me.....|Vous me croy ez|
 _B z _e d c c c2) | z (F F F{/F} f _e c2 | _B) z (_A G F _E E E | _E E E E E E E E | %453
w: donc, à ce qu'il pa raît,|bien in fé rieur aux cy|gnes, pour ce qui re gar de|le pres sen ti ment et la di|
 _E E E2 E2- E) z | z2 z (_e fd c2) | (G c A2 G ^F =B G | A) z (A A B d/ d/ D2 | G E A2 c e d c | %458
w: vi na ti on. _|Les cy _ gnes,|quand ils sen tent qu'ils vont mou|rir, chan tent en co re mieux|ce jour- là qu'ils n'ont ja mais|
 _B) z (c A d A f A | _B A c A d2 d) z | z8 | %461
w: fait, dans la joie d'al ler trou|ver le dieu qu'ils ser vent.....||
 z8[Q:1/4=68][Q:1/4=64][Q:1/4=60][Q:1/4=56][Q:1/4=52][Q:1/4=48] |[Q:1/4=72] z (G _B G c G G2 | %463
w: |....Bien que j'aie plu sieurs fois|
 A G _B G c2 G2) | z (G _B G c G d G | A2 _B G c G d G | ^F4 !courtesy!=E2) z2 | z8 | %468
w: ad mi ré So cra te,|je ne le fis ja mais au|tant que dans cet te cir cons|tan ce....||
 z2 z (^F G A B2 | E ^F G2 F) z (A B | c d e2) (E ^F G A |{/A} A2 A) z z2 z (B | %472
w: J'é tais as sis|à sa droi te, à cô|té du lit, sur un pe tit|siè ge; et|
 A) z z2 (A ^F E F | G B c d c2) z2 | z2 (d _B c c d2 | c A G A) (A c c2 | f d c2) (d c c _B | %477
w: lui, il é tait as|sis plus haut que moi.|Me pas sant la main|sur la tê te, et pre nant|mes che veux, qui tom baient sur|
 A d G2 F2) z2 |[Q:1/4=68] z8[Q:1/4=64][Q:1/4=60][Q:1/4=56] |[Q:1/4=52] z2 z!f! (G A2) (_B G | %480
w: mes é pau les:...||De main, O Phé|
 F2) z (_B A2) z2 | z2 (G G!>(! A c d _e!>)! |!p! f d _B2)!pp! (A F G2) |[Q:1/4=54] z8 | %484
w: don, dit- il,|tu fe ras cou per ces|beaux che veux n'est- ce pas?...||
[Q:1/4=56] z8 |[Q:1/4=58] z!p! (G A c d2 =B A |[Q:1/4=60] B A G ^F E2 F G | %487
w: |.....Il se le va et pas|sa dans u ne cham bre voi|
[Q:1/4=62] A2 A2) (d c d2 |[Q:1/4=64] c B A2) z4 |[Q:1/4=66] (c c c c c2) z (c | %490
w: si ne, pour y pren|dre le bain;|Cri ton l'y sui vit, et|
[Q:1/4=68] A B c d e c d e |[Q:1/4=70] c3 _B) z4 |[Q:1/4=72] z8 | %493
w: So cra te nous pri a de l'at|ten dre.....||
[Q:1/4=60]!f! (A d !courtesy!=B2) (A G ^F2 | E D C2) (D =F A A | B2 G ^F E2 E B | %496
w: En ren trant, il s'as sit|sur son lit, et n'eut pas le|temps de nous di re grand'|
 B2 A) z z4[Q:1/4=72] |!mf! (E A ^F F F F ^G2 | ^F B A2 !courtesy!=G G G G | %499
w: cho se:....|Car le ser vi teur des On|ze en tra presque en mê me|
 !^!!courtesy!=c2)"^ralentir"[Q:1/4=70] z[Q:1/4=68] (_B[Q:1/4=66] G[Q:1/4=64] G[Q:1/4=62] F[Q:1/4=60] F | %500
w: temps, et s'ap pro chant de|
[Q:1/4=58] F2) z2[Q:1/4=56] z2 z (c |"^très lent"[Q:1/4=52] c2 _B) z z2 z (_A | c2) z2 z4 | %503
w: lui: So|cra te, dit-|il,|
[Q:1/4=72] z!f! (!courtesy!=B A2 ^G2 ^F A | A A B2 ^c A B2 |!mf! B B ^G2 ^F G E2 | %506
w: j'es pè re que je|n'au rai pas à te fai|re le mê me re pro|
 ^F B A2 F) z z2 | z!mp! (A A A A A A A | A2) z (B c A) z (A | A A G) z (G A B B | %510
w: che qu'aux au tres:|des que je viens les a ver|tir, par l'or dre des|ma gis trats, qu'il faut boi re|
 B ^c B2) (d B A A | G G A2) z (B B A | G2 A) z z2 (G ^F | E2) z (A B e e ^c | B2 A B e B B) z | %515
w: le poi son, ils s'em por tent|con tre moi, et me mau|dis sent; mais pour|toi, je t'ai tou jours trou|vé le plus cou ra geux,|
 (B E ^F A E E E E | E E E E E E E2 | E E E E E2) (A A | B B e2 e e e2 | d ^c B A G A B c | %520
w: le plus doux et le meil leur de|ceux qui sont ja mais ve nus|dans cet te pri son, et en|ce mo ment je sais bien|que je suis as su ré que tu|
 d ^c B A G A A2) | z (A G A G A B ^c | d2 ^c B A A A2) | z (B B B B B B2) | %524
w: n'es pas fâ ché con tre moi,|mais con tre ceux qui sont la|cau se de ton mal heur,|et que tu con nais bien.|
[Q:1/4=68] z8[Q:1/4=64][Q:1/4=60][Q:1/4=56] |[Q:1/4=52] (B ^c A e e2 ^f e | d d ^c c B2) z2 | %527
w: |Main te nant, tu sais ce que|je viens t'an non cer;|
[Q:1/4=66] z4!pp! ^F2{/F} F2 | z4"^très lent" (^F F F F | ^F F F F F F F F | ^F2 F F F F F F | %531
w: a dieu,|tâ che de sup|por ter a vec ré sig na ti|on ce qui est i né vi|
 E2 E) z z4 |[Q:1/4=72] (B A ^c A B2) (e d | d ^c B2 B B B B | B2 B2) (A ^G ^F E | E2) z2 z4 | z8 | %537
w: tab le.|Et en mê me temps il se|dé tour na en fon dant en|lar mes, et se re ti|ra.||
 z8 | z8 | z (B d2 e d c B | A2 z G A2) z2 | z2 z!mf! (A B d c B | A2 A G A2) z2 | z4 (^G ^F G F | %544
w: ||So cra te, le re gar|dant, lui dit:|et toi aus si, re|çois mes a dieux;|je fe rai ce|
 ^G ^F G2) z4 | z (A ^c A ^d A B2) | (B A ^c A ^d) z z2 | (e =d =c d e2 A B | c2 c) z z2 (c d | %549
w: que tu dis.|Et se tour nant vers nous:|voy ez, nous dit- il,|quelle hon nê te té dans cet|hom me: tout le|
 e c A F B F c) z | (G G G G G G G2) | z (D E E F F G2 | D D E2) z4 | (A F G E F D E2 | %554
w: temps que j'ai é té i ci,|il m'est ve nu voir sou vent,|et s'est en tre te nu|a vec moi:|c'é tait le meil leur des hom|
 E) z z (F G G A2) | z (A _B B c2 G2 |[Q:1/4=64] G[Q:1/4=60] _B A2) z4 |!f! (A ^F E2) z (A G2) | %558
w: mes; et main te nant|com me il pleu re|de bon cœur!|Mais al lons, Cri ton;|
 z (A B G ^F2 E2) | z (D E G ^F2 E2) | z (d B e ^c2 B2 | A A B2) z2 z (B | B d G2) z4 | %563
w: o bé is sons- lui|de bon ne grâ ce,|et qu'on ap por te|le poi son, s'il|est bro yé;|
 z (G !courtesy!=F2) (G B A A) | z (c _BF G2) z2 | z8 | z4 z2 z!mf! (B | B d ^c2 d A G2 | %568
w: si non, qu'il le bro ie|lui- mê _ me.....||Cri|ton fit signe à l'es cla|
 ^F F G G A A B2) | z!mp! (B A2 A B A2) | (e B A G E G A2 | A B A2) (A A A A | %572
w: ve qui se te nait au près.|L'es cla ve sor tit,|et a près ê tre sor ti|quel que temps, il re vint a|
 A A A2)[Q:1/4=62] (A A A A |[Q:1/4=64] A2 A A A2) z (A |[Q:1/4=66] A A A A A A A A | %575
w: vec ce lui qui de vait don|ner le poi son, qu'il|por trait tout bro yé dans u ne|
[Q:1/4=68] ^G2 ^F) z z4 |[Q:1/4=70] z8 | (!courtesy!=F G A B c d e d | c2) z (B A2) z (B | %579
w: cou pe.||Aus si tôt que So cra te le|vit: fort bien, mon|
 A !fermata!G) (A G A2) (c B | A B c B A2 A) z | z!mf! (B B B B B B B | B2 B2) z4 | %583
w: a mi, lui dit- il; mais que|faut- il que je fas se?|Car c'est à toi à me l'ap|pren dre.|
 z (e B B e2 e) z | z (^f g f e2 e) z | z (d !courtesy!=c B A A A2) | (A B c c d2) z (B | %587
w: Pas au tre cho se,|lui dit cet hom me,|que de te pro me ner|quand tu au ras bu, jus|
 A A E E A2 A A | B2 G c B d A A) | (G E !courtesy!=F F G G G2 | B G A2) (E G E G | %591
w: qu'à ce que tu sen tes tes|jam bes ap pe san ti es,|et a lors de te cou cher|sur ton lit; le poi son a|
 E G F A G2 G) z | z8 | (E[Q:1/4=74] E G[Q:1/4=76] A[Q:1/4=78] B2) z (B | %594
w: gi ra de lui- mê me.||Et en mê me temps, il|
 d A G B[Q:1/4=74] B2[Q:1/4=70] B)[Q:1/4=66] z |[Q:1/4=64] z8[Q:1/4=60] |[Q:1/4=52] z8[Q:1/4=72] | %597
w: lui ten dit la cou pe....|||
 z (A G2 ^F B A E | E2 ^F A G2 E) z |!p! (A c A c!>(! B G G B!>)! |!pp! c d e2 ^f d B B | %601
w: So cra te por ta la|coupe à ses lè vres,|et la but a vec u ne tran|quil li té et u ne dou|
 B2 B d e2 ^c) z | z8 |!mp! (B d A2 G _B c c | d _B d d _e c f2 | c2) z!mp! (c !courtesy!=B A G G | %606
w: ceur mer veil leu se.||Jus que- là nous a vions eu|pres que tous as sez de for|ce pour re te nir nos|
 F F) z2 z (A c c | d f c2 !courtesy!=B) (B c A | G E F2) (E E G G | A c _B2 A) z z2 | %610
w: lar mes; mais en le|voy ant boi re, et a près|qu'il eut bu, nous n'en fû mes|plus les maît tres.|
 z4 z2 z (^C | E2) (E E G2 A B | !courtesy!=c2) z (c c c c c | G2 G G G G G c | B2 B) z (B B B B | %615
w: Pour|moi, mal gré tous mes ef|forts, mes lar mes s’é chap|pè rent a vec tant d'a bon|dan ce, que je me cou|
 ^c c c c c2 ^d d | ^f2 B B B2 B) z | z!p! (E G ^F F2 G B | ^c2 c B d2 c c | ^c B G2) (A B c2 | %620
w: vris de mon man teau pour pleu|rer sur moi- mê me;|car ce n'est pas le mal|heur de So cra te que|je pleu rais, mais le mien,|
 d B A ^F E E E F | ^G2 G) z z4 | z4 (D ^F ^G G | ^G2 ^F2) (G E F G | A2) z!<(! (B ^c c B ^G!<)! | %625
w: en son geant quel a mi j'al lais|per dre.....|...Ce pen dant So|cra te, qui se pro me|nait, dit qu'il sen tait ses|
!mp! ^F2 F F F F ^G2) | (A E E ^F !courtesy!=D2 E F | A) z (A B !courtesy!=c2 A !courtesy!=G | %628
w: jam bes s'ap pe san tir,|et il se cou cha sur le|dos, com me l'hom me l'a|
 !courtesy!=F2 E E A2) z2 | z (A B B G2) (A A | F2 G) (G E E E E | D2 E G G2) (A ^c | %632
w: vait or don né.|En mê me temps le même|hom me qui lui a vait don|né le poi son, s'ap pro|
 e2 !courtesy!=f f e e d d | !courtesy!=c c B2 A A G G | F2 E E A2 G) z | z!mf! (A A A A A A2 | %636
w: cha, et a près a voir e|xa mi né quel que temps ses|pieds et ses jam bes,|il lui ser ra le pied|
 A A A2) (A A A A | G E ^F A B2) z2 | z!ff! (B c A B2) z2 | z!pp!"^subito" (G ^F A B G A2 | %640
w: for te ment, et lui de man|da s'il le sen tait;|il dit que non.|Il lui ser ra en sui|
 B e !courtesy!=c2 B) z z2 | (B B c c d d e2) | z (B c c d2 !courtesy!=c A | %643
w: te les jam bes;|et por tant ses mains plus haut,|il nous fit voir que le|
 G2 A A B2 !courtesy!=c A | G G A2) z (d !courtesy!=c A | B e ^f2 d) z z (c | B G ^F2) (D D E E | %647
w: corps se gla çait et se|rai dis sait; et le tou|chant lui- mê me, il|nous dit que, dès que le froid|
 G G A A B) z z (c | B G ^F2 G G A c | B2) z2 z4 | z8 | z!mf! (G ^F F E G A2) | z (e c c B2) z2 | %653
w: ga gne rait le cœur, a|lors So cra te nous quit te|rait.....||...A lors se dé cou vrant,|So cra te dit:|
 z (B c2[Q:1/4=74] d a[Q:1/4=76] g e |[Q:1/4=78] ^f B c[Q:1/4=76] e d2 B) z | %655
w: Cri ton, nous de vons un|coq à Es cu la pe;|
!f![Q:1/4=74] (e ^f d2[Q:1/4=72] c c[Q:1/4=70] B2 | %656
w: n'oub lie pas d'ac quit ter|
[Q:1/4=68]!>(! c c[Q:1/4=66] B2[Q:1/4=64]!pp! A)!>)! z[Q:1/4=62] z2 | %657
w: cet te det te...|
[Q:1/4=60] z8[Q:1/4=58][Q:1/4=56][Q:1/4=54] |[Q:1/4=52] z (E E E E E A2) | %659
w: |Un peu de temps a près|
 z (E[Q:1/4=56] E E[Q:1/4=60] E E[Q:1/4=64] E2 | %660
w: il fit un mou ve ment|
[Q:1/4=66] E E[Q:1/4=62] A2)[Q:1/4=58] z4[Q:1/4=54] |[Q:1/4=52] (E E E2 E E E E | E2 E E A2) z2 | %663
w: con vul sif;|a lors l'hom me le dé cou|vrit tout- à- fait:|
 (E E E2 E E E E) | z4 z!mf! (E E2[Q:1/4=72] | E E E2 E E A2) | (E E E E E2 E E |!pp! A2- A) z z4 | %668
w: ses re gards étai ent fi xes.|Cri ton,|s'en é tant a per çu,|lui fer ma la bouche et les|yeux ....|
 z8 |[Q:1/4=70] z!mf! (B B2) z (B B B |[Q:1/4=68] B2) (B B B B B B | B B B2) z4 | %672
w: |....Voi là, É ché cra|tès, quel le fut la fin de|notre a mi......|
[Q:1/4=66]!mp!!>(! (e e e e e e e2 | %673
w: ...du plus sage et du plus jus|
[Q:1/4=64] e e[Q:1/4=62] e e!>)!!p![Q:1/4=60] A2[Q:1/4=58] A) z | %674
w: te de tous les hom mes.|
[Q:1/4=56] z8[Q:1/4=52][Q:1/4=48][Q:1/4=44] |[Q:1/4=40] z8[Q:1/4=36][Q:1/4=32][Q:1/4=28] |] %676
w: ||
V:2
!p! (A,2 A2 | A,2 A2) | (E3 ^F | A2- A) z | (^C3 D | E2- E) z | (B,3 ^C | ^C2- C) z | !>!^C2- C z | %9
 z/"^très lié""_expressif" (^c/!<(!d/e/ ^f/^g/a/b/)!<)! |!f!!>(! !>![^ce^f^c']4!>)!!pp! | %11
!pp! !>![B^c^fb]2 !>![e^bc'e']2 | !>![^ce^f^c']4 |!mf! ([^F^f]2- [Ff][Ee]) | (d2 e2 | %15
 B) z ([^C^c][=D=d]) | z [^DB] z [!courtesy!=F!courtesy!=c] | z ([GB] de |"_m.g." A=c B2) | x4 | %20
"_m.g." (D2 G2) | [FA]2 [F_B]2 | [FA]2 [CE]2 |!>(! !>!A4!>)! |"_m.g." ([cf][df][Ad][_Bd]) | x4 | %26
!p! !>![D^F]4 | !>![D^F]4 | !tenuto!.[^F,B,^C^F]4 | !tenuto!.[^F,B,E^F]4 | !tenuto!.[^F,B,D^F]4 | %31
 !tenuto!.[^F,B,^C^F]4 | !tenuto!.[^F,B,D^F]4 |[K:bass] !tenuto!.[E,A,B,E]4 | !tenuto!.[E,A,DE]4 | %35
 !tenuto!.[E,A,CE]4 | !tenuto!.[E,A,B,E]4 |!mf! !tenuto!.[E,A,CE]4 |[K:treble] (aedB | AE^FA | %40
 BB,BB,) | BB,BB, | BB,BB, |!f! x4 | z/!mf! (B,/!>(!=C/D/ E/^F/G/A/)!>)! |!p! (B^GBG | B^GBG | %47
 B^GA^F | B^GBG) |!mf! (BdBd | BdBd | BdBd) | .[^Gd].[Gd].[Gd].[Gd] | .B.c.d.e |!<(! (dede | %55
 d!<)!ede) |!f! !>![Aa]2 !>![Gg]2 | !>![Aa]2 !>![Bb]2 |!mf! (=dede) |!p! (gc'gc') | %60
!mf!"^a Tempo" (_BAGc) | z (E Fc) | GA !courtesy!=B2 |!f! ([F,F][G,G][A,A][Cc] | %64
 [!courtesy!=B,!courtesy!=B][A,A] [B,B]2) |!mf! ([^G,^G][^F,^F] [G,G]2) | %66
!p! !>![!courtesy!=E!courtesy!=GA!courtesy!=e]4 | !>![DEAd]2 !>![Gdeg]2 | !>![EGAe]4 | %69
!mf! ([dd']2- [dd'][cc']) |!p! ([Bb]2- [Bb][Aa]) |!pp! ([^G^g]2- [Gg][^F^f] | %72
[K:bass]!p! !tenuto!.[!courtesy!=C,!courtesy!=F,G,!courtesy!=C]4) | !tenuto!.[C,F,_B,C]4 | %74
 !tenuto!.[C,F,_A,C]4 | !tenuto!.[C,F,G,C]4 | !tenuto!.[C,F,_A,C]4 | %77
 !tenuto!.[D,G,!courtesy!=A,D]4 | !tenuto!.[D,G,CD]4 | !tenuto!.[D,G,_B,D]4 | !tenuto!.[D,G,A,D]4 | %81
 !tenuto!.[D,G,_B,D]4 |[K:treble]!f! ([Gg][^F^f][Dd][Ee] | [Dd][B,B] [A,A]2) | %84
 z [^E^c] z [!courtesy!=Gd] | z [A^c] ([ce]"_m.g."[^d^f] | B=d ^c2) |[K:bass]!p! (D,2 D2 | %88
 D,2 D2) |[K:treble] (A3 B | d2- d) z | (F3 G | A2- A) z | (E3 ^F | ^F2- F) z | !>!^F2- F z | %96
 z/!<(! (^F/!courtesy!=G/A/ B/!courtesy!=c/d/e/)!<)! |!mf! (!courtesy!=fc_BG | FCDF) | %99
 G"_rit."G,GG, |!p! G"_lent"G,GG, | GG,GG, | .G._A._B.c | _BcBc | _BcBc | _BcBc | _BcBc | %107
[K:bass] [_A,_C]2 [A,=D]2 | [_D_E]2 [C=E]2 |[K:treble] ([!courtesy!=E!courtesy!=e][Dd] [Ee]2) | %110
!mf! ([^C^c][B,B] [Cc]2) |!p! ([^A,^A][^G,^G] [A,A]2) | %112
!mf! !>![!courtesy!=F!courtesy!=f]2 !>![_E_e]2 | !>![Ff]2 !>![Gg]2 |!8va(! (_bc'bc') | %115
!p! (_e'_a'e'a')!8va)! |!pp! (c'/!courtesy!=b/!courtesy!=a/g/ ^f/e/d/c/ | B/A/G/^F/ E/D/C/B,/) | %118
!p! !tenuto!.[^F,B,^C^F]4 | !tenuto!.[^F,B,E^F]4 | !tenuto!.[^F,B,D^F]4 | !tenuto!.[^F,B,^C^F]4 | %122
 !tenuto!.[^F,B,D^F]4 | !tenuto!.[G,!courtesy!=CDG]4 | !tenuto!.[G,CFG]4 | !tenuto!.[G,C_EG]4 | %126
 !tenuto!.[G,CDG]4 | !tenuto!.[G,C_EG]4 | !tenuto!.[A,D!courtesy!=EA]4 | !tenuto!.[A,DGA]4 | %130
 !tenuto!.[A,DFA]4 | !tenuto!.[A,DEA]4 | !tenuto!.[A,DFA]4 |!mf! (C2 c2 | C2 c2) | (G3 A | %136
 c2- c) z | (E3 F | G2- G) z | (D3 E | E2- E) z | !>!E2- E z | !>![DG]2- [DG] z | %143
 !>![^C^F]2- [CF] z |!pp! !>![^ce^f^c']4 | !>![B^c^fb]2 !>![eb^c'e']2 | !>![^ce^f^c']4 | %147
 !>![^ce^f^c']4 | !>![B^c^fb]2 !>![eb^c'e']2 | !>![^ce^f^c']4 | !>![^ce^f^c']4 | %151
 !>![B^c^fb]2 !>![eb^c'e']2 | !>![^ce^f^c']4 |!mf! (A,2 A2 | A,2 A2) | (E3 ^F | A2- A) z | (^C3 D | %158
 E2- E) z |!p! (B,3 ^C | ^C2- C) z | !>!^C2- C z | !>!^C2- C z ||[M:3/4] x6 | %164
"_(m.g.)" ^c^c'"_ralentir"!>(!e!fermata!e'^f!fermata!f'!>)! | %165
 !fermata!g!fermata!g'!fermata!a!fermata!a'!fermata!^f!fermata!^f' | %166
 !fermata!g!fermata!g'!fermata!a!fermata!a' z2 |"^Plus lent" z2!f! z2 z (^f | eg d2 ^c) z | %169
[K:bass]!mf! (E2 D2 E2) |[K:treble]"_(m.g.)" z ([A^c] [Be][Bd])[I:staff +1] .[E,^G,^C].[^C,^F,B,] | %171
 !tenuto!.[^C,E,A,]2!>(! .[^F,A,].[!courtesy!=G,B,].[A,^C].[B,D]!>)! |!p![I:staff -1] (^fbf^cfc | %173
 ^f^cfcfc |!f! ^f^c!>(!fcfc) | z2!>)!!ppp! !>![^c^c']2- !fermata![cc'] z |][M:6/8]!p!"_chanté" z6 | %177
 z6 | z6 | z6 | x6 | x6 |!f! [^CG^c]2!p!"_subito" ([B,^FA] [B,EG]2) ([G,DF] | %183
 [G,^CE]2) ([G,B,E] [G,B,D]2) z | (^c2 ^f) (B2 e) | !tenuto!.d2 z!mf! ^f3 | (g3 g3 | %187
 b2) z"_m.g."!mf! (eA=c | dGB BE^F | G2) z !tenuto!.G2 .^F | (EG^F F2) z | %191
 !>![dgd']2 z !>![d^fa]2 z | !>![_B,G]2 z !>![A,A]2 z | !>![A,F]2 z !>![G,G]2 z | %194
[K:bass]!mf! !>![!courtesy!=F,D]2 z !>![E,E]2 z |[K:treble] [ea]2 ([fa] [^ge']) x2 | %196
!p! (!>!A3 !>!G2) x | D2 (F _EFG) |!mf! .[A,C!courtesy!=E]2 .[B,D^F] !>![CEG]2 z | (^FGA BdB) | %200
 !>!B2 z !>!^F2 F | !>!^F2 z .=c.B.A | (Be).A .=G.^F.E | (^FBB,) (A!courtesy!=dD) | (BeE) (BeE) | %205
 (BeE) (eaA) | (ad'd) !tenuto!.^c'2 z | z6 |!pp! [ad']a'[ad'] a'[ad']a' | x6 | x6 | x6 | %212
!mf![I:staff +1] ([^F,^C]2 [E,B,] [F,C]2 [E,B,]) | ([^F,^C]2 [E,B,] [F,C]2 [E,B,]) | %214
 ([^F,^C]2 [E,B,] [F,C]2 [E,B,]) | ([^F,^C]2 [E,B,] [F,C]2 [E,B,]) | %216
 ([^F,^C]2 [E,B,] [F,C]2 [E,B,]) | ([^F,^C]2 [E,B,] [F,C]2 [E,B,]) | %218
!p! ([G,D]2 [!courtesy!=F,!courtesy!=C] [G,D]2 [F,C]) | ([G,D]2 [F,C] [G,D]2 [F,C]) | %220
 ([!courtesy!=E,!courtesy!=B,]2 [D,A,] [E,B,]2 [D,A,]) | ([E,B,]2 [D,A,] [E,B,]2 [D,A,]) | %222
[I:staff -1] x6 | .[EG] z!mf! z (^FED | EBA AE^F | G!>(!A!courtesy!=B ^c2)!>)! z | (_EF_G _A2) z | %227
!mf! .!courtesy!=E2 .E .^C2 .C | .[B,G]2 .[B,G] .[D^F]2 .[!courtesy!=CE] | %229
 .[B,^F]2 .[^G,^CE] .[A,CE]2 .[A,CE] | x6 |!pp!"_subito" (e2 ^f b2 a) | (e2 ^f b2"_etc." a) | x6 | %234
 x6 | x6 | x6 | (GA_B cd!courtesy!=e | fga _bc'd') | %239
!mf! .[!courtesy!=E_B!courtesy!=e]2 ([DAc] [DGB]2) ([_B,FA] | %240
 [_B,!courtesy!=EG]2) ([B,DG] [B,DF]2) z | %241
 .[!courtesy!=B,F!courtesy!=B]2 ([A,EG] [A,DF]2) ([F,CE] | %242
 [F,!courtesy!=B,D]2) ([F,A,D] [F,A,C]2) z |[K:bass] ([_E,_B,]2 [_D,_A,] [E,B,]2 [D,A,]) | %244
!p! ([_E,_B,]2 [_D,_A,] [E,B,]2 [D,A,]) | ([_E,_B,]2 [_D,_A,] [E,B,]2 [D,A,]) | %246
 ([_E,_B,]2 [_D,_A,] [E,B,]2 [D,A,]) |[K:treble]!mf! (_B_eE _A_d_D) | %248
 (!courtesy!=Gc!>(!C F_B_B,)!>)! | %249
!p![I:staff +1] .[F,!courtesy!=A,C].[G,_B,D].[A,C!courtesy!=E] .[F,A,C].[G,B,D].[A,CE] | %250
[I:staff -1] (e2 a) (d2 g) | !tenuto!.f2 .g !tenuto!.a2 z |!mf! (!courtesy!=B2 e) (A2 d) | %253
 !tenuto!.c2 .d !tenuto!.e2 z |!8va(! (g'c''c' f'_b'!>(!_b) | ([f'a']3!>)! [_e'g']2)!8va)! z | %256
!pp! ([g!courtesy!=b]3 [fa]2) z | ([gb]3 [fa]2) z | ([gb]3 [fa]2) z | (AGD) (AGD) | (AGD) (AGD) | %261
 (AGD) (BAE) | !>![^ce]2 z ([ff']3 | [gg'][ff']"_rit."[ee'] [dd']2) z |!mf! (_e3 _a2) z | %265
 (_B3 _A2) ([Cc] | [_D_B]3 [C_A]2)[K:bass] ([F,F] | [_G,_E]3 [F,_D]2) (C | %268
!>(! !courtesy!=B,2 G, A,2)!>)!!mf!"_très ralenti" (C |!<(! B,2 G, A,2) (C | B,2 G, A,2) (C!<)! | %271
!f! B,2 G, A,2)[K:treble]!p!"_m.g." z | CD"^rall."!fermata!E!>(! !fermata!^FGA!>)! | %273
!pp! ([^fb]^f'[fb] f'[fb]f' | [^fb]^f'[fb] f'[fb]f') | x6 | x6 | x6 | x6 | x6 | x6 | x6 | x6 | x6 | %284
 x6 | x6 | x6 | x6 | x6 |[I:staff +1] (B,A,"_rit."B,) (B,^CB,) |"_a tempo" (B,A,B,) (B,^CB,) | %291
 (B,A,B,) (B,^C[G,B,]) | (B,A,B,) (B,^CB,) |[I:staff -1] (D!courtesy!=CD) (DED) | (DCD) (DED) | %295
 (DCD) (DED) | (DCD) (DED) |!pp! .[CEG].[DFA].[EG!courtesy!=B] .[CEG].[DFA].[EGB] | %298
 .[CEG].[DFA].[EGB] .[CEG].[DFA].[EGB] | .[CEG].[DFA].[EGB] .[CEG].[DFA].[EGB] | %300
 .[CEG].[DFA].[EGB]"_rit." .[CEG].[DFA].[EGB] |!p! z ([G,_B,][_A,C]) z ([B,_D][A,C]) | %302
 z ([CG][_D_A]) z ([C_E][_B,_D]) | z ([_A,C][_B,_D]) z ([B,D][C_E]) | %304
 z ([G,_B,][_A,C]) z ([B,_D][A,C]) | %305
!pp! .[!courtesy!=G,B,!courtesy!=D].[A,CE].[B,DF] .[G,B,D].[A,CE].[B,DF] | %306
 .[G,B,D].[A,CE].[B,D^F] .[G,B,D].[A,CE].[B,DF] |!p! x6 | x6 | x6 | x6 | %311
!mf! (!courtesy!=B2 e) (A2 d) | !tenuto!.c2 .d !tenuto!.e2 z | (^F2 B) (E2 A) | %314
 !tenuto!.G2 .A !tenuto!.B2 z |!p![I:staff +1] ([E,B,]2 [D,A,] [E,B,]2 [D,A,]) | %316
 ([E,B,]2 [D,A,] [E,B,]2 [D,A,]) |[I:staff -1] x6 | _B,CD _EF!f!G | %319
!pp!"_subito" ([Ad]2 [B!courtesy!=e] [ea]2 [dg]) | ([Ad]2 [Be] [ea]2 [dg]) | %321
 ([Ad]2 [Be] [ea]2 [dg]) | ([Ad]2 [Be] [ea]2 [dg]) | ([Ad]2 [Be] [ea]2 [dg]) | %324
 ([Ad]2 [Be] [ea]2 [dg]) | ([Ad]2 [Be] [ea]2 [dg]) | ([Ad]2 [Be] [ea]2 [dg]) | %327
 ([Ad]2 [Be] [ea]2 [dg]) | ([Ad]2 [Be] [ea]2 [dg]) | ([Ad]2 [Be] [ea]2 [dg]) | %330
 ([Ad]2 [Be] [ea]2 [dg]) |!mf! z (^fd) z (e^c) | z ([G^c]A) z ([^FB]A) | (D2 E A2 G) | %334
!>(! (D2 E A2!>)!!p! G) |!pp! (D2 E A2 G) | (D2 E A2 G) | (D2 E A2 G) | (D2 E A2 G) | (D2 E A2 G) | %340
 (D2 E A2 G) | z ([Ad]_B) z ([Gc]A) | z ([_EA]F) z ([DG]E) | (!courtesy!=E2!<(! ^F B2 A) | %344
 (E2!<)!!mp! ^F B2 A) | (E2 ^F B2 A) | (D2 E A2 !courtesy!=G) | (C2 D G2 !courtesy!=F) | %348
!mf!"^très expressif" (A2 !courtesy!=B e2 d |!p! A2 B e2 d) |!mf! (A2 B e2 d |!p! A2 B e2 d) | %352
 (A2 B e2 d | A2 B e2 d) |!pp! (A2 B e2 d | A2 B e2 d) |!ppp! (A2 B e2 d | A2 B e2 d) | %358
 (A2 B e2 d | A2 B e2 d) |!mf!"_subito" (a2 b =e'2) z | (a2 b =e'2 d' | a2 b =e'2) z | %363
 (a2 b =e'2) z | (a2 b =e'2 d' | a2 b =e'2) z | ([^C^F]2 [DG] [EA]2) z | %367
[I:staff +1] !>![D,^F,B,]2 .[^C,F,A,] !>![D,F,A,]2[I:staff -1] z | (a2 b =e'2) z | (a2 b =e'2 d' | %370
 a2 b =e'2) z | (a2 b =e'2) (B | ^F3 D3 | ^C3 B,2 A, | ^F,2 A, B,2) z | (a2 b =e'2 d' | %376
 a2 b =e'2) z | (a2 b =e'2) z |!p!"^Ralentir peu à peu" (a2 b =e'2 d' |!pp! a2 b!>(! =e'2) z!>)! | %380
!ppp!"^Très lent" (a2 b =e'3- | e'3- e'2) z |] %382
[M:4/4]"_La basse en dehors"!p! ([gb]2 [ac']2 [bd']2 [c'e']2) | ([gb]2 [ac']2 [bd']2 [c'e']2) | %384
 ([gb]2 [ac']2 [bd']2 [c'e']2) | ([gb]2 [ac']2 [bd']2 [c'e']2) |!p! ([gb]2 [^fa]2 [eg]2 [df]2 | %387
 [ce]2 [Bd]2 [Ac]2 [GB]2) |!mf! ([G,E]2 [A,^F]2) (FB E2) | %389
[K:bass] ([^F,D]2 [E,A,]2) ([A,D]2 [B,D]2) |[K:treble] x4 z2 z"^doucement expressif" (^f | %391
 e2 B2 e2) z (^f | e2 B2 e2) z (^f | e2 B2 e2) z!mf! (^f' | e'2 b2 e'2) z (^f' | %395
 e'2 b2 e'2) z (^f' | e'2 b2 e'2) z (^f' | e'2 b2 e'2) x2 | %398
 !tenuto!.^F2 !tenuto!.E2 !tenuto!.D2 x2 | !tenuto!.^F2 !tenuto!.E2 !tenuto!.D2 x2 | %400
 !tenuto!.^F2 !tenuto!.E2 !tenuto!.D2 x2 | !tenuto!.^F2 !tenuto!.E2 !tenuto!.D2 x!f! (^F | %402
 E2 B,2 E2) z (^F | E2 B,2 E2) z (^F | E2 B,2 E2) z (^F | E2 B,2 E2) z2 | %406
!>(! .[B,^FB] z .[EBe] z .[Aea] z!>)! .[dad'] z | %407
!mf! ([_Bd][!courtesy!=ce]"_(m.g.)"[d!courtesy!=f][ce]) ([Ac][Bd][ce][Bd]) | %408
 ([G_B][Ac][GB][Ac] [GB]) z z2 |[K:bass] !tenuto!.E2 !tenuto!.D2 !tenuto!.C2 z2 | %410
 !tenuto!.E2 !tenuto!.D2 !tenuto!.C2 z2 | !tenuto!.E2 !tenuto!.D2 !tenuto!.C2 z2 | %412
 !tenuto!.E2 !tenuto!.D2 !tenuto!.C2[K:treble] z (=b | b2 ^c'2) (c'^f' b) z | (a2 e2 a2- a) z | %415
!f!!ff! !>!!courtesy!=G2!ff! !>!A2!ff! !>!A2 !tenuto!.A2 |"_subito"!p! ([dd']2 [cg]2 [Bb]2 [Ae]2) | %417
 ([Gg]2 [!courtesy!=F!courtesy!=c]2 [Ee]2 [DA]2) |!p! x8 | x2 x2 x4 | x8 | x8 | x2 x2 x4 | x8 | %424
 (3(a^fd e) z (3(^c'af g) z |!f! !>!e'4-!>(! e'2 z2!>)! | %426
!mf! (3(g'e'!courtesy!=c' d') z (3(e'c'a b) z | (3(c'af g) z (3(afd e) z | %428
[K:bass]!ff! !>![F,_B,DF]4- [F,B,DF]2 z2 |!p! (!>![F,D]4-!<(! [F,D]2 x2!<)! | %430
!mf! [^F,D]4- [F,D]2) z2 | (!>![E,-!courtesy!=B,^C-E-]8 | %432
!f! [E,CE]4- [E,CE])[K:treble]!mf! (G, A,B, | CE^FB FECE | ^FBFE CEFB | ^FECE FBFE | %436
 CE^FB FE) z[K:bass] (C | !courtesy!=F,A,B,E B,A,F,A, | B,EB,A, F,A,B,E | %439
!>(! B,A,F,A, B,E!>)!B,A, |!p! F,A,B,E B,A,) z2 |[K:treble]!mf! (a2 ^f2 e2 c2) | (d2 B2 A2 ^F2) | %443
 (G2 E2 D2 B,2) |[I:staff +1] (A,2 B,2) (A,2 B,2) |!p! (A,2 B,2) (D2 E2) | %446
[I:staff -1] (G2 A2) !>![Dd]2- [Dd] z |!pp! (!courtesy!=F!pp!C_B,_A F!pp!CB,A | %448
 F!pp!C_B,_A F!pp!CB,A | F!pp!C_B,_A F!pp!CB,A | F!pp!C_B,_A F!pp!CB,A | F!pp!C_B,_A F!pp!CB,A | %452
 F!pp!C_B,_A F!pp!CB,A | F!pp!C_B,_A F!pp!C B,) z | x8 | x2!pp! (!courtesy!=A2 e2 d2) | %456
 ([c^f]2 [ea]2 [fb]2 [ad']2) | ([be']2 [ad']2 [gg']2) z2 |"_m.g." (_BAcA dA!<(!fA)!<)! | %459
!p! (_BAcA dAfA) |!pp! (_BAcA dAfA) | (_B"_rall."AcA dA f) z |!p! (AG_BG cGdG) | (AG_BG cGdG) | %464
 (AG_BG cGdG) | (AG_BG cG d) z |!f! .A z .d z .=e z .d z |!p!"_subito" .A z .d z .=e z .d z | %468
[K:bass]!mf! (^F,G,A,B,[K:treble] CDE^F | GABc d) z .D z | .c z .C z .B z .B, z | %471
!f! !>!D4!f! !>!E4 |!f! !>!^F4- F2- F z | (be' a2) (gc' ^f2) | %474
 (ea d2) (c!courtesy!=f !courtesy!=B2) |[K:bass] !>!D4- D2 z2 | !>!G,4- G,2 z2 | %477
[K:treble]"_m.d."!p![I:staff +1] ([F,A,]2 [G,_B,]2 [A,C]2 [B,D]2) | %478
"_très lent"!mf! ([F,A,]2 [G,_B,]2!<(! [A,C]2 [B,D]2)!<)! |!f! ([F,A,]2 [G,_B,]2 [A,C]2 [B,D]2) | %480
 ([F,A,]2 [G,_B,]2 [A,C]2 [B,D]2) | ([F,A,]2 [G,_B,]2!>(! [A,C]2 [B,D]2)!>)! | %482
!p!!>(! ([F,A,]2 [G,_B,]2!>)!!pp! [A,C]2 [B,D]2) |!p!"_poco a poco" (A,!p!E,D,C A,!p!E,D,C | %484
"_a tempo" A,!p!E,D,C A,!p!E,D,C | A,!p!E,D,C A,!p!E,D,C | A,!p!E,D,C A,!p!E,D,C | %487
 A,!p!E,D,C A,!p!E,D,C | A,!p!E,D,C A,!p!E,D,C | A,!p!E,D,C A,!p!E,D,C | %490
 A,!p!E,D,C A,!p!E, D,)[I:staff -1] z |"^expressif"[I:staff +1] (F,G,A,_B,[I:staff -1] CD_EF | %492
 GA_Bc d_e f2) |!f!!ff!"_lent" !>!A2!ff! !>!!courtesy!=B2!ff! !>!B2 !tenuto!.B2 | %494
!ff! !>!!courtesy!=G2!ff! !>!A2!ff! !>!A2 !tenuto!.A2 |!ff! !>!D2!ff! !>!E2!ff! !>!E2 !tenuto!.E2 | %496
[K:bass]!ff! !>!D2!ff! !>!C2!ff! !>!D2- D[K:treble]!mf! (e!f! | e2 ^f2) (fb e) z | %498
 (d2 A2 d2- d) z |!f! !>!!courtesy!=c4- c2 z2 |!mf! !>!c4- c2 z2 | .c4- c2 z2 |!p! !>!c4- c2 z2 | %503
!f! (3(!courtesy!=b'^g'e' ^f') z (3(^g'e'^c' ^d') z | (3(e'^c'a b) z (3(c'a^f ^g) z | %505
!p![I:staff +1] !tenuto!.[^G,B,^D]2{/^F} !tenuto!.[G,^CE]2 !tenuto!.[^D,^F,G,B,]2{/^D} !tenuto!.[E,G,C]2 | %506
 !tenuto!.[=D,^F,B,]2 !tenuto!.[^C,E,A,]2 !tenuto!.[C,F,A,]2 !tenuto!.[E,^G,B,]2 | %507
!p![I:staff -1] ([!courtesy!=ce][d^f][e!courtesy!=g][df]) ([Bd][ce][df][ce]) | %508
 ([Ac][Bd][Ac][Bd] [Ac]) z z2 | x8 | ([B,D][^CE][B,D][CE] [B,D]) z z!mf! (^c' | %511
 b2 ^f2 b) z z (^c' | b2 ^f2 b) z z (^c' | b2 ^f2 b) z z!p! (^c' | b2 ^f2 b) z z!pp! (^c | %515
 B2 ^F2 B2) z (^c | B2 ^F2 B2) z (^c | B2 ^F2 B2) z (^c | B2 ^F2 B2) z2 | %519
 ([EG][^FA][EG][FA] [EG][FA]) z2 | ([EG][^FA][EG][FA] [EG][FA]) z2 | %521
 ([EG][^FA][EG][FA] [EG][FA]) z2 | ([EG][^FA][EG][FA] [EG][FA]) z2 | %523
!f! z2[I:staff +1] [E,A,E][I:staff -1] z z2[I:staff +1] [E,A,E][I:staff -1] x | %524
!mf! z2[I:staff +1] [E,A,E][I:staff -1] z z2[I:staff +1] [E,A,E][I:staff -1] x | %525
!p! z2[I:staff +1] [E,A,E][I:staff -1] z z2[I:staff +1] [E,A,E][I:staff -1] x | %526
!pp! z2[I:staff +1] [E,A,E][I:staff -1] z z2[I:staff +1] [E,A,E][I:staff -1] x | %527
!pp! (A^GBG ^cGeG) | (A^GBG"_suivre le chant" ^cGeG) | (A^GBG ^cGeG) | (A^GBG ^cG e) z | %531
 (^G^FAF BF^cF) |"_a tempo" (^G^FAF BF^cF) | (^G^FAF BF^cF) | (^G^FAF BF ^c) z | %535
!f!!<(! !tenuto!.[B,E!courtesy!=GB]2 !tenuto!.[!courtesy!=C^FA!courtesy!=c]2 !tenuto!.[DGBd]2!<)!!ff! !breath!!tenuto!.[EAce]2 | %536
"_(m.g.) en dehors"!p!"^subito" ([gb]2 [ac']2 [bd']2 [c'e']2) | ([gb]2 [ac']2 [bd']2 [c'e']2) | %538
 ([gb]2 [ac']2 [bd']2 [c'e']2) | ([gb]2 [^fa]2 [eg]2 [df]2) | ([ce]2 [Bd]2 [Ac]2 [GB]2) | %541
!mf! ([G,E]2 [A,^F]2) (FB E2) |[K:bass] ([^F,D]2 [E,A,]2) ([A,D]2 [B,D]2) |[K:treble] x4 z2 z (^d | %544
 ^c2 ^G2 c2) z (^d | ^c2 ^G2 c2) z (^d | ^c2 ^G2 c2) z2 | z4 z2 z (B | A2 E2 A2) z (B | %549
 A2 E2 A2) z (B | A2 E2 A2) z2 |!mf! x2 x2 x4 | x8 | x8 | x8 | x8 | !breath!x8 | %557
!p! ([A,D]2 [!courtesy!=B,!courtesy!=E]2 [^C^F]2 [DG]2) | ([A,D]2 [B,E]2 [^C^F]2 [DG]2) | %559
 ([A,D]2 [B,E]2 [^C^F]2 [DG]2) | ([A,D]2 [B,E]2 [^C^F]2 [DG]2) |!mp! !>!^c2 !>!d2 !>!e2 !>!^f2 | %562
 !>!^F2 !>!G2 !>!A2 !>!B2 | !>!B,2 !>!C2 !>!D2 !>!E2 | %564
[K:bass] !>!E,2 !>!F,2 !>!G,2 !>!!breath!A,2 |!p! x8 |[K:treble] x2 x2 x4 | x8 | x8 | %569
!pp![I:staff +1] (E!pp!B,A,G E!pp!B,A,G | E!pp!B,A,G E!pp!B,A,G | E!pp!B,A,G E!pp!B,A,G | %572
 E!pp!B,A,G"_accel." E!pp!B,A,G | E!pp!B,A,G E!pp!B,A,G | E!pp!B,A,G E!pp!B, A,)[I:staff -1] z | %575
!p! ([d^f][e^g][fa][eg]) ([^ce][df][eg][df]) | ([Bd][^ce][Bd][ce] [Bd]) z z2 | %577
 ([!courtesy!=FA][!courtesy!=GB][A!courtesy!=c][GB] [FA][GB][Ac][GB] | %578
 [FA][GB][Ac][GB] [FA][GB][Ac][GB] | [FA][GB][Ac][GB] [FA][GB][Ac][GB] | %580
 [FA][GB][Ac][GB] [FA]2) z ^f |!mf! !>![Aa]4- [Aa]2 z ^f | !>![Aa]4- [Aa]2 z ^f | %583
 !>![Aa]4- [Aa]2 z ^f | !>![Aa]4- [Aa]2 z B | !>![Dd]4- [Dd]2 z B | !>![Dd]4- [Dd]2 z B | %587
 !>![Dd]4- [Dd]2 z B | !>![Dd]4- [Dd]2 z E | !>![G,G]4- [G,G]2 z E | !>![G,G]4- [G,G]2 z E | %591
 !>![G,G]4- [G,G]2 z E | !>![G,G]4- [G,G]2 z (^F |"_accel." E2!<(! B,2 E2)!<)! z (^F | %594
 E2 B,2"_rit." E2) z!f! (^F |"_lent" E2 B,2 E2)!p! z (^F |"_plus lent" E2 B,2 E2) z!mf! (A | %597
 A2 B2) (Be A) z | (G2 D2 G2- G) z |!p! (c4 B2 e2) |!pp! (G4 ^F2 B2) | (D4 ^C2 ^F2) | %602
!f! !tenuto!.[G,!courtesy!=CG]2[K:bass] !tenuto!.[E,A,C]2{/E} !tenuto!.[D,A,D]2 !tenuto!.[D,G,B,]2 | %603
[K:treble]!p! (3(afd e) z (3(fd_B c) z | (3(d_BG A) z (3(BG_E F) z | x2 (3FGA (3=Bcd e z | %606
!mf! ([ff']2 [_e_b]2 [dd']2 [cg]2) | ([_B_b]2 [_A_e]2 [Gg]2 [Fc]2) | ([cc']2 [_Bf]2 [Aa]2 [Gd]2) | %609
 ([Ff]2 [_E_B]2 [Dd]2 [CG]2) | (3(A^FD E) z (3(FDB, ^C) z | %611
[K:bass]!p! (3(E^CA, B,) z (3(DB,G, A,) z | %612
[K:treble]!f!"_subito" !>![G,!courtesy!=CEG]4- [G,CEG]2 z2 |!p! (!>![G,E]4- [G,E]2 x2 | %614
 !>![^G,E]4- [G,E]2) z2 | !>![^F,-^C^D-^F-]8 | [F,-D-F]4 [F,D] (^C B,A, | %617
!p! !courtesy!=G,B,^C^F CB,G,B, | ^C^FCB, G,B,CF | ^CB,G,B, C^FCB, | G,B,^C^F CB,) z (E | %621
 D^F^G^c GFDF | ^G^cG^F DFGc | ^G^FDF G^cGF | D^F^G^c GF) z2 |!mf! (e2 ^c2 B2 ^G2) | %626
 (!courtesy!=g2 e2 !courtesy!=d2 B2) | (!courtesy!=c'2 a2 g2 e2) |[I:staff +1] (D2 E2) (D2 E2) | %629
 (D2 E2) (C2 D2) | (_B,2 C2) !>!A,2- A,[I:staff -1] z | (^fb e2) (dg ^c2) | (Be A2) (Gc ^F2) | %633
 !>!A4- A2 z2 | !>!D4- D2 z2 |!mf![I:staff +1] ([B,,D,]2 [C,E,]2) ([B,,D,]2 [C,E,]2) | %636
!<(! ([B,,D,]2 [C,E,]2) ([B,,D,]2 [C,E,]2)!<)! |!f!!<(![I:staff -1] x8!<)! |!ff! x8 | %639
"_m.g.        mais en dehors"!pp!"^m.d."!p! ([egb]2 [^fac']2 [gbd']2 [a!courtesy!=c'e']2) | %640
"_très chanté" ([egb]2 [^fac']2 [gbd']2 [a!courtesy!=c'e']2) | ([egb]2 [^fac']2 [gbd']2 [ac'e']2) | %642
 ([egb]2 [^fac']2 [gbd']2 [ac'e']2) | ([EGB]2 [^FAc]2 [GBd]2 [A!courtesy!=ce]2) | %644
 ([EGB]2 [^FAc]2 [GBd]2 [A!courtesy!=ce]2) |!mf! ([EGB]2 [^FAc]2 [GBd]2 [Ace]2) | %646
 ([EGB]2!>(! [^FAc]2 [GBd]2!>)! [Ace]2) |!pp! x8 | x2 x2 x4 |!mf! (G2 ^F4 E2) |!p! (G2 ^F4 E2) | %651
!mf! x8 | x2 x2 x4 | x8 | x8 |[K:bass]!f!!>(! !>![^F,^F]4-!>)! [F,F]2"_rall." z2 | %656
!p! !>![D,D]4- [D,D]2 z2 |!f! !>![E,E]4- [E,E]2!pp! z2 |!f! !>![E,E]4- [E,E]2!pp! z2 | %659
!p! !>![E,E]4- [E,E]2 z2 | !>![E,E]4- [E,E]2 z2 |!p! !>![E,E]4- [E,E]2 z2 | %662
!p! !>![E,E]4- [E,E]2 z2 |!p! !>![E,E]4- [E,E]2 z2 |!p! !>![E,E]4- [E,E]2 z2 | %665
!mf! !>![E,E]4- [E,E]2 z2 | !>![E,E]4-"_decresc."!>(! [E,E]2 z2!>)! |!pp! !>![E,E]4- [E,E]2 z2 | %668
!p! !>![^F,^F]4- [F,F]2 z2 |!mf! !>![^F,^F]4- [F,F]2 z2 |!mf! !>![^F,^F]4- [F,F]2 z2 | %671
 !>![^F,^F]4- [F,F]2 z2 |!mp! !>![E,E]4- [E,E]2 z2 |!p! !>![E,E]4- [E,E]2 z2 | %674
[K:treble]!p!"^ralentir de plus en plus" !>![B,B]4- [B,B]2 z2 |!p! !>![B,B]4- [B,B]2 z2 |] %676
V:3
 .^F,,.^F,,,.F,,.F,,, | .^F,,.^F,,,.F,,.F,,, | .^F,,.^F,,,.F,,.F,,, |!mf! .^F,,.^F,,,.F,,.F,,, | %4
 .^F,,.^F,,,.F,,.F,,, | .^F,,.^F,,,.F,,.F,,, | .^F,,.^F,,,.F,,.F,,, | .^F,,.^F,,,.F,,.F,,, | %8
 .^F,,.^F,,,.F,,.F,,, | .^F,,.^F,,,.F,,.F,,, |[K:treble]"^subito" !>!A4 | !>!A2 !>!A2 | !>!A4 | %13
[K:bass] !>!^C4 | (B,A,)(B,^C | ^D^F)(A,B,) | z [G,,G,] z [A,,A,] | z [E,,E,] x2 | x4 | %19
"^m.d." (D,/E,/^F,/=G,/[I:staff -1] A,/B,/!courtesy!=C/D/) |!mf![I:staff +1] z4 | %21
!f! !>![D,,D,]2 !>![_B,,,_B,,]2 | !>![F,,,F,,]2 !>![C,,C,]2 | !>![D,A,]4 |!p! x4 | %25
 !>![A,C]2 !>![^F,A,]2 | (3(^C!courtesy!=B,B,, (3B,CB, | (3B,,B,^C (3B,B,,B,) | %28
 (B,,[E,,E,]B,,[E,,E,] | B,,[E,,E,]B,,[E,,E,] | B,,[E,,E,]B,,[E,,E,] | B,,[E,,E,]B,,[E,,E,] | %32
 B,,[E,,E,]B,,[E,,E,]) | (A,,[D,,D,]A,,[D,,D,] | A,,[D,,D,]A,,[D,,D,] | A,,[D,,D,]A,,[D,,D,] | %36
 A,,[D,,D,]A,,[D,,D,] | A,,[D,,D,]A,,[D,,D,]) | (D4 | ^CB,A,^F, | ^F,2 E,) z | .E, z z2 | %42
 .E, z z2 | .[B,,E,^G,].[D,^F,B,].[E,G,^C].[G,B,E] | z/ (^F,/=G,/A,/ B,/=C/D/E/) | (D^CDC | D^CDC | %47
 D^CCB, | D^CDC) | (E^FEF | E^FEF | E^FEF) | .D.D.D.D |[K:treble] .E.F.=G.A | (A^GAG | A^GAG) | %56
[K:bass]"_ralentir" .[B,E].[B,E].[A,D].[A,D] | .[B,E].[B,E].[^C^F].[CF] | %58
 (!fermata!E!fermata!D!fermata!E!fermata!D) | %59
[K:treble] (!fermata!A!fermata!_B!fermata!A!fermata!B) |[K:bass] G,2- G, z | z G, F,2 | %62
 (!courtesy!=B,A,G,D,) | !>![C,,C,]2 !>![F,,F,]2 | !>![_E,,_E,]2 !>![D,,D,]2 | %65
 !>![=C,,=C,]2 !>![B,,,B,,]2 | !>!!courtesy!=C4 | !>!C2 !>!C2 | !>!C4 |[K:treble] !>!A4 | !>!^F4 | %71
 !>!^D4 |[K:bass] (!courtesy!=F,,[_B,,,_B,,]F,,[B,,,B,,] | F,,[_B,,,_B,,]F,,[B,,,B,,] | %74
 F,,[_B,,,_B,,]F,,[B,,,B,,] | F,,[_B,,,_B,,]F,,[B,,,B,,] | F,,[_B,,,_B,,]F,,[B,,,B,,]) | %77
 (G,,[C,,C,]G,,[C,,C,] | G,,[C,,C,]G,,[C,,C,] | G,,[C,,C,]G,,[C,,C,] | G,,[C,,C,]G,,[C,,C,] | %81
 G,,[C,,C,]G,,[C,,C,]) | !>![E,,E,]2 !>![C,,C,]2 | !>![G,,,G,,]2 !>![D,,D,]2 | %84
 z [A,,A,] z [B,,B,] | z [^F,,^F,] x2 | x4 | .[D,,B,,].B,,,.[D,,B,,].B,,, | .B,,.B,,,.B,,.B,,, | %89
 .B,,.B,,,.B,,.B,,, | .B,,.B,,,.B,,.B,,, | .B,,.B,,,.B,,.B,,, | .B,,.B,,,.B,,.B,,, | %93
 .B,,.B,,,.B,,.B,,, | .B,,.B,,,.B,,.B,,, | .B,,.B,,,.B,,.B,,, | .B,,.B,,,.B,,.B,,, | (_B,4 | %98
 A,G,F,D, | D,2 C,) z | .C, z z2 | .C, z z2 |[K:treble] _C_D_EF | F!courtesy!=EFE | FEFE | FEFE | %106
 FEFE |[K:bass] !>![_A,,,_A,,]2 !>![_D,,_D,]2 | !>![_C,,_C,]2 !>![_B,,,_B,,]2 | %109
 !>![_A,,_A,]2 !>![G,,G,]2 | !>![!courtesy!=F,,!courtesy!=F,]2 !>![E,,E,]2 | %111
 !>![!courtesy!=D,,!courtesy!=D,]2 !>![^C,,^C,]2 | %112
 .[!courtesy!=G,!courtesy!=C].[G,C].[F,_B,].[F,B,] | .[G,C].[G,C].[A,D].[A,D] |[K:treble] (c_BcB) | %115
 (f_gfg) |[K:bass] x4 | x4 | (B,,[E,,E,]B,,[E,,E,] | B,,[E,,E,]B,,[E,,E,] | B,,[E,,E,]B,,[E,,E,] | %121
 B,,[E,,E,]B,,[E,,E,] | B,,[E,,E,]B,,[E,,E,]) | %123
 (!courtesy!=C,[!courtesy!=F,,!courtesy!=F,]C,[F,,F,] | C,[F,,F,]C,[F,,F,] | C,[F,,F,]C,[F,,F,] | %126
 C,[F,,F,]C,[F,,F,] | C,[F,,F,]C,[F,,F,]) | (D,[G,,G,]D,[G,,G,] | D,[G,,G,]D,[G,,G,] | %130
 D,[G,,G,]D,[G,,G,] | D,[G,,G,]D,[G,,G,] | D,[G,,G,]D,[G,,G,]) | .A,,.A,,,.A,,.A,,, | %134
 .A,,.A,,,.A,,.A,,, | .A,,.A,,,.A,,.A,,, | .A,,.A,,,.A,,.A,,, | .A,,.A,,,.A,,.A,,, | %138
 .A,,.A,,,.A,,.A,,, | .A,,.A,,,.A,,.A,,, | .A,,.A,,,.A,,.A,,, | .A,,.A,,,.A,,.A,,, | %142
 .G,,.G,,,.G,,.G,,, | .^F,,.^F,,,.F,,.F,,, |[K:treble] !>!A4 | !>!A2 !>!A2 | !>!A4 | !>!A4 | %148
 !>!A2 !>!A2 | !>!A4 | !>!A4 | !>!A2 !>!A2 | !>!A4 |[K:bass] .^F,,.^F,,,.F,,.F,,, | %154
 .^F,,.^F,,,.F,,.F,,, | .^F,,.^F,,,.F,,.F,,, | .^F,,.^F,,,.F,,.F,,, | .^F,,.^F,,,.F,,.F,,, | %158
 .^F,,.^F,,,.F,,.F,,, | .^F,,.^F,,,.F,,.F,,, | .^F,,.^F,,,.F,,.F,,, | .^F,,.^F,,,.F,,.F,,, | %162
 .^F,,.^F,,,.F,,.F,,, ||[M:3/4] z/!mf! ^F,/G,/A,/[I:staff -1] B,/^C/D/E/ ^F/G/A/B/ | %164
!ped![I:staff +1] x6!ped-up! |!ped! x6!ped-up! |!ped! x6!ped-up! | z2 (B,^C D2) | %168
[K:treble] (G2 ^F2 E) z |[K:bass] !>!^C,2 !>!B,,2 !>!C,2 | x6 | x6 | %172
[K:treble]!ped! (A2 B4-!ped-up! |!ped! B2- B) z z2!ped-up! | %174
[K:bass]!ped! z2"^molto" z2 (^G,2!ped-up! |!ped! ^A,4- A,) z!ped-up! |][M:6/8] (A,,2 B,, E,2 D,) | %177
 (A,,2 B,, E,2 D,) | (A,,2 B,, E,2 D,) | (A,,2 B,, E,2 D,) |"^expressif"!mf! E,^F,G,!<(! A,B,^C | %181
[I:staff -1] DE^F!<)! GAB |[I:staff +1] .[E,,E,]2 ([D,,D,] [E,,E,]2) ([B,,,B,,] | %183
 [^C,,^C,]2) ([E,,E,] [G,,,G,,]2) z | E2 ^C D2 B, | A,2 z[K:treble] z2 (^F | E3 E^FG | %187
 ^F2) z x x2 |[K:bass] x3 z2 B, | G,2 z !tenuto!.[C,,C,]2 .[D,,D,] | !>![E,,E,]2 z [B,,,B,,]2 z | %191
"^m.g. très en dehors" x6 | !>![D,,D,]2 z !>![C,,C,]2 z | !>![C,,C,]2 z !>![_B,,,_B,,]2 z | %194
 !>![A,,,A,,]2 z !>![G,,,G,,]2 z | x6 | z (EC) z (DB,) | (F,E,D, C,2- C,) | %198
 ([A,,,A,,][C,,C,][!courtesy!=B,,,!courtesy!=B,,] [C,,C,]2 .[C,,C,]) | %199
 !>![D,,D,]2 z !>![G,,G,]2 .[E,,E,] | !>![B,,,B,,]2 .[C,,C,] !>![D,,D,]2 .[B,,,B,,] | %201
 !>![^F,,,^F,,]2 z .[A,=C].[^G,B,].[^F,A,] | !>![^G,B,]2 .[^F,A,] .[E,=G,].[^D,^F,].[^C,E,] | %203
 !>![^D,^F,]2 z !>![F,A,]2 z | ([G,B,][A,^C][G,B,]) ([G,B,][^F,A,][G,B,]) | %205
 ([G,B,][A,^C][B,D]) ([CE]2 [B,D]) |[K:treble] (A2 G) !tenuto!.A2 z | x6 | x6 | %209
[I:staff -1] [ad']a'[ad'] a'[ad']a' | ([gc']g'[gc'] g'[gc']g') | ([f_b]f'[fb] f'[fb]f') | %212
[I:staff +1][K:bass] x6 | x6 | x6 | x6 | x6 | x6 | x6 | x6 | x6 | x6 | %222
 .[^F,A,].[G,B,].[A,!courtesy!=C][I:staff -1] .[B,D].[CE].[D^F] |[I:staff +1] C z (E, ^F,G,A, | %224
 A,^F,G, A,2 _B, | A,2) x4 | (_G,F,_D, _E,2) z | %227
 .[!courtesy!=E,,!courtesy!=B,,]2 .[E,,B,,] .[A,,E,]2 .[A,,E,] | %228
 .[G,,D,]2 .[G,,D,] .[B,,^F,]2 .[!courtesy!=C,G,] | .[D,^F,]2 .[^C,,^C,] .[A,,,A,,]2 .[A,,,A,,] | %230
 .[!courtesy!=G,B,D].[!courtesy!=F,A,!courtesy!=C].[D,^F,A,] !>![E,^G,B,]2 z |!ped! x6!ped-up! | %232
!ped! x6!ped-up! |!ped![I:staff -1] (e2 ^f b2 a)!ped-up! |!ped! (e2 ^f b2 a)!ped-up! | %235
!ped! (d2 e a2 g)!ped-up! |!ped! (c2 d g2 !courtesy!=f)!ped-up! |[I:staff +1] x6 | x6 | %239
 .[G,,G,]2 ([F,,F,] [G,,G,]2) ([D,,D,] | [E,,!courtesy!=E,]2) ([G,,G,] [_B,,,_B,,]2) z | %241
 .[D,,D,]2 ([C,,C,] [D,,D,]2) ([A,,,A,,] | %242
 [!courtesy!=B,,,!courtesy!=B,,]2) ([D,,D,] [F,,,F,,]2) z | %243
 ([_A,,,_A,,]2 [_D,,_E,,] [A,,,A,,]2 [D,,E,,]) | ([_A,,,_A,,]2 [_D,,_E,,] [A,,,A,,]2 [D,,E,,]) | %245
 ([_A,,,_A,,]2 [_D,,_E,,] [A,,,A,,]2 [D,,E,,]) | ([_A,,,_A,,]2 [_D,,_E,,] [A,,,A,,]2 [D,,E,,]) | %247
 ([_G,_B,]3 [_F,_A,]2) z | ([_E,!courtesy!=G,]3 [_D,!courtesy!=F,]2) z | %249
 .[F,,,F,,].[A,,,G,,].[A,,,A,,] .[F,,,F,,].[G,,,G,,].[A,,,A,,] |[K:treble] (G2 E) (F2 D) | %251
 !tenuto!.C2 .D !tenuto!.E2 z |[K:bass] D2 B, C2 A, | G,2 A, B,2 z |[K:treble] ([_eg]3 [_df]2) z | %255
 (d_ef g2 c) |"_en dehors" (!>!G3 A2) z | (!>!G3 A2) z | (!>!G3 A2) z | %259
[K:bass]!ped! (F,,C,A,) (F,,C,A,) | (F,,C,A,) (F,,C,A,) | (F,,C,A,) (G,,D,B,)!ped-up! | %262
 !>!A,,2 z"^m.g."[I:staff -1] ([GB][Ad][Bf] | [!courtesy!=ce][Bd][Ac] [GB]2)[I:staff +1] G, | %264
 C2 _B, C2 z | _B,C_D C2 ([_A,,,_A,,] | [_B,,,_B,,]2 [_E,,_E,] [F,,F,]2) ([_D,,_D,] | %267
 [_E,,_E,]2 [_A,,,_A,,] [_B,,,_B,,]2) ([C,,C,] | %268
 [!courtesy!=B,,,!courtesy!=B,,]2 [G,,,G,,] [A,,,A,,]2) ([C,,C,] | %269
 [B,,,B,,]2 [G,,,G,,] [A,,,A,,]2) ([C,,C,] | [B,,,B,,]2 [G,,,G,,] [A,,,A,,]2) ([C,,C,] | %271
 [B,,,B,,]2 [G,,,G,,] [A,,,A,,]2) x | x6 | x6 | x6 |"^a tempo"[I:staff -1] ([ea]e'[ea] e'[ea]e') | %276
 ([dg]d'[dg] d'[dg]d') | %277
!p![I:staff +1] x[I:staff -1] ([^FA][GB])[I:staff +1] z[I:staff -1] ([Ac][GB]) | %278
[I:staff +1] z[I:staff -1] ([B^f][cg])[I:staff +1] z[I:staff -1] ([Bd][Ac]) | %279
[I:staff +1] z[I:staff -1] ([GB][Ac])[I:staff +1] z[I:staff -1] ([Ac][Bd]) | %280
[I:staff +1] z[I:staff -1] ([^FA][GB])[I:staff +1] z[I:staff -1] ([Ac][GB]) | %281
[I:staff +1] z[I:staff -1] ([^D^F][E^G])[I:staff +1] z[I:staff -1] ([FA][EG]) | %282
[I:staff +1] z[I:staff -1] ([^G^d][Ae])[I:staff +1] z[I:staff -1] ([GB][^FA]) | %283
[I:staff +1] z[I:staff -1] ([E^G][^FA])[I:staff +1] z[I:staff -1] ([FA][GB]) | %284
[I:staff +1] z[I:staff -1] ([^D^F][E^G])[I:staff +1] z[I:staff -1] ([FA][EG]) | %285
[I:staff +1] z[I:staff -1] ([^GB][A^c])[I:staff +1] z[I:staff -1] ([B!courtesy!=d][Ac]) | %286
[I:staff +1] z[I:staff -1] ([^c^g][da])[I:staff +1] z[I:staff -1] ([ce][Bd]) | %287
"^rit."[I:staff +1] z[I:staff -1] ([A^c][Bd])[I:staff +1] z[I:staff -1] ([Bd][ce]) | %288
"^tempo"[I:staff +1] z[I:staff -1] ([^GB][A^c])[I:staff +1] z[I:staff -1] ([Bd][Ac]) | %289
[I:staff +1] x6 | x6 | x6 | x6 | z ([G,_B,][F,A,]) z ([C,G,][_B,,F,]) | %294
 z ([F,A,][G,_B,]) z ([A,C][G,B,]) | z ([E,G,][D,F,]) z ([A,C][G,_B,]) | %296
 z ([G,_B,][F,A,]) z ([C,G,][_B,,F,]) | %297
"_sans pédale" .[C,,C,].[D,,D,].[E,,E,] .[C,,C,].[D,,D,].[E,,E,] | %298
 .[C,,C,].[D,,D,].[E,,E,] .[C,,C,].[D,,D,].[E,,E,] | %299
 .[C,,C,].[D,,D,].[E,,E,] .[C,,C,].[D,,D,].[E,,E,] | %300
 .[C,,C,].[D,,D,].[E,,E,] .[C,,C,].[D,,D,].[E,,E,] | (F,_E,F,) (F,G,F,) | (F,_E,F,) (F,G,F,) | %303
 (F,_E,F,) (F,G,F,) | (F,_E,F,) (F,G,F,) | %305
"_sans pédale" .[G,,,G,,].[A,,,A,,].[B,,,B,,] .[G,,,G,,].[A,,,A,,].[B,,,B,,] | %306
 .[G,,,G,,].[A,,,A,,].[B,,,B,,] .[G,,,G,,].[A,,,A,,].[B,,,B,,] | %307
"^m.g."!ped![I:staff -1] ([^gb][a^c'][b^d'] [gb][ac'][bd'])!ped-up! | %308
!ped! ([e!courtesy!=g][!courtesy!=fa][gb] [eg][fa][gb])!ped-up! | ([^ce][d^f][e^g] [ce][df][eg]) | %310
 ([A!courtesy!=c][_Bd][ce] [Ac][Bd][ce]) |[I:staff +1] D2 !courtesy!=B, C2 A, | G,2 A, B,2 z | %313
 A,2 ^F, G,2 E, | D,2 E, ^F,2 z | x6 | x6 |"^expressif" C,D,_E,!<(! F,G,[E,A,] | F,G,A, _B,CD!<)! | %319
[K:treble] (!courtesy!=B,2 ^C A2 G) | (B,2 ^C A2 G) | (B,2 ^C A2 G) | (B,2 ^C A2 G) | %323
 (B,2 ^C A2 G) | (B,2 ^C A2 G) | (B,2 ^C A2 G) | (B,2 ^C A2 G) | (B,2 ^C A2 G) | (B,2 ^C A2 G) | %329
 (B,2 ^C A2 G) | (B,2 ^C A2 G) | (!>!B,3 !>!A,2) z |[K:bass] z ([B,D]^C) z ([A,C]B,) | %333
 (E,2 ^F, D2 !courtesy!=C) | (E,2 ^F, D2 C) | (E,2 ^F, D2 C) | (E,2 ^F, D2 C) | (E,2 ^F, D2 C) | %338
 (E,2 ^F, D2 C) | (E,2 ^F, D2 C) | (E,2 ^F, D2 C) | x ([C_E]D) x ([_B,D]C) | %342
 x ([G,_B,]A,) x ([F,A,]G,) | (^F,2 ^G, E2 D) | (^F,2 ^G, E2 D) | (^F,2 ^G, E2 D) | %346
 (E,2 ^F, D2 C) | (D,2 E, C2 _B,) | (G,3 A,3 | C3 B,2) z | (G,3 A,3 | C3 B,2) z | (B,3 A,3 | %353
 B,3 A,2) z | (B,3 A,3 | B,3 A,2) z | (B,3 A,3 | B,3 A,2) z | (B,3 A,3 | B,3 A,2) z | %360
[K:treble] (^c3 d2) z | (^c3 d2) z | (^c3 d2) z | (^c3 d2) z | (^c3 d2) z | (^c3 d2) z | %366
[K:bass] ([^F,A,]2 [G,B,] [A,^C]2) z | !>!B,,2 .[^F,,,^F,,] !>![D,,,D,,]2 z | %368
[K:treble] (^c3 d2) z | (^c3 d2) z | (^c3 d2) z | (^c3 d2) z |[K:bass] ([^F,,^C,]3 [B,,^F,]3 | %373
 [A,,E,]3 [G,,D,]2 [^F,,^C,] | [D,,A,,]3 [B,,,^F,,]2) z |[K:treble] (^c3 d2) z | (^c3 d2) z | %377
 (^c3 d2) z | (^c3 d2) z | (^c3 d2) z | (^c3 d3- | d3- d2) z |] %382
[M:4/4][K:bass]"^m.g."[I:staff -1] (e2 ^f2 g2 a2) | (e2 ^f2 g2 a2) | (e2 ^f2 g2 a2) | %385
 (e2 ^f2 g2 a2) | (e2 d2 c2 B2 | A2 G2 ^F2 E2) | %388
[I:staff +1] ([E,,E,]2 [D,,D,]2) ([B,,,B,,]2 [C,,C,]2) | %389
 ([D,,D,]2 [A,,,A,,]2) ([^F,,,^F,,]2 [B,,,B,,]2) |!pp!!ped![I:staff -1] DCEC ^FCGC | %391
 DCEC ^FCGC!ped-up! |[I:staff +1] x8 | x6[K:treble] z (d | d2 d2 d2) z (d | d2 d2 d2) z (d | %396
 d2 d2 d2) z (d | d2 d2 d2)[K:bass] z ([^F,,^F,] | [E,,E,]2 [B,,,B,,]2 [E,,E,]2) z ([^F,,^F,] | %399
 [E,,E,]2 [B,,,B,,]2 [E,,E,]2) z ([^F,,^F,] | [E,,E,]2 [B,,,B,,]2 [E,,E,]2) z ([^F,,^F,] | %401
 [E,,E,]2 [B,,,B,,]2 [E,,E,]2) z ([A,,,A,,] | [B,,,B,,]2 [C,,C,]2 [D,,D,]2) z ([A,,,A,,] | %403
 [B,,,B,,]2 [C,,C,]2 [D,,D,]2) z ([A,,,A,,] | [B,,,B,,]2 [C,,C,]2 [D,,D,]2) z ([A,,,A,,] | %405
 [B,,,B,,]2 [C,,C,]2 [D,,D,]2) (3z (B,,^C, | %406
 (3D,E,^F, (3G,A,B,[I:staff -1] (3^CDE ^F)[I:staff +1] z | x8 | x6 z ([E,,E,] | %409
 [D,,D,]2 [A,,,A,,]2 [D,,D,]2) z ([E,,E,] | [D,,D,]2 [A,,,A,,]2 [D,,D,]2) z ([E,,E,] | %411
 [D,,D,]2 [A,,,A,,]2 [D,,D,]2) z ([E,,E,] | [D,,D,]2 [A,,,A,,]2 [D,,D,]2)[K:treble] z (^d | %413
 e2 A2) (B^c ^d) z | (^c2 B2 A2- A) z | %415
[K:bass] .[!courtesy!=C,,!courtesy!=C,] z .[!courtesy!=F,,!courtesy!=F,] z .[D,,D,] z !tenuto!.[A,,,A,,]2 | %416
 x8 | x8 |"^(sourd.)"!mp! (D!p!A,G,!courtesy!=F!mp! D!p!A,G,F |!mp! D!p!A,G,F!mp! D!p!A,G,F | %420
!mp! D!p!A,G,F!mp! D!p!A,G,F |!mp! D!p!A,G,F!mp! D!p!A,G,F |!mp! D!p!A,G,F!mp! D!p!A,G,F | %423
!mp! D!p!A,G,F!mp! D!p!A, G,) z |!mf! ([^F,A,D]2 [G,B,E]) z ([A,^C^F]2 [B,DG]) z | %425
[K:treble] z2 (^F2 G2 A2) | ([EG!courtesy!=c]2 [!courtesy!=FAd]) z ([CEA]2 [DFB]) z | %427
 ([A,CF]2 [B,DG]) z[K:bass] ([F,A,D]2 [G,B,E]) z | .C, z"_très sec" .C,, z .C, z .C,, z | %429
"^subito" .C, z .C,, z .C, z .C,, z | .C, z .C,, z .C, z .C,, z | %431
 .!courtesy!=B,, z!<(! .B,,, z .B,, z .B,,, z!<)! | .A,, z .A,,, z .A,, z z2 | %433
"_léger" .[^F,,^F,]2 .[A,,A,]2 .[B,,B,]2 .[A,,A,]2 | .[D,D]2 .[D,,D,]2 !>![E,,E,]3 .[^F,,^F,] | %435
 .[A,,A,]2 .[G,,G,]2 .[B,,B,]2 .[B,,,B,,]2 | .[C,,C,]2 .[D,,D,]2 .[E,,E,]2 .[^F,,^F,]2 | %437
 .[B,,,B,,]2 .[D,,D,]2 .[E,,E,]2 .[D,,D,]2 | .[G,,G,]2 .[G,,,G,,]2 !>![A,,,A,,]3 .[B,,,B,,] | %439
 .[D,,D,]2 .[C,,C,]2 .[E,,E,]2 .[E,,,E,,]2 | .[F,,,F,,]2 .[G,,,G,,]2 .[A,,,A,,]2 .[B,,,B,,]2 | %441
[K:treble] (^F2 ^G2 A2 G2) |[K:bass] (B,2 ^C2 D2 C2) | (E,2 ^F,2 G,2 F,2) | !>![C,E,]4 !>![C,E,]4 | %445
 !>![C,E,]4 !>![^F,A,]4 | ([G,,G,]2 [A,,A,]2) !>![^F,A,B,]2- [F,A,B,] (.[E,,E,] | %447
!p! (!>![_E,,_E,]2) z!pp! .[E,,E,])!p! !>![E,,E,]2 z2 | %448
!p! !>![_E,,_E,]2 z!pp! .[E,,E,]!p! !>![E,,E,]2 z2 | %449
!p! !>![_E,,_E,]2 z!pp! .[E,,E,]!p! !>![E,,E,]2 z2 | %450
!p! !>![_E,,_E,]2 z!pp! .[E,,E,]!p! !>![E,,E,]2 z2 | %451
!p! !>![_E,,_E,]2 z!pp! .[E,,E,]!p! !>![E,,E,]2 z2 | %452
!p! !>![_E,,_E,]2 z!pp! .[E,,E,]!p! !>![E,,E,]2 z2 | %453
!p! !>![_E,,_E,]2 z!pp! .[E,,E,]!p! !>![E,,E,]2 z2 | %454
"_m.g."!p! ([D,F,][!courtesy!=E,G,][F,_A,][G,_B,] [=A,C][=B,=D][C_E][DF] | [=EG]2) x2 B,C D2 | %456
 x2 x2 x4 | x8 | x2 x2 x4 | x8 | x8 | x8 | (_E,D,F,D, G,D, A,) z | (_E,D,F,D, G,D, A,) z | %464
 (_E,D,F,D, G,D, A,) z | (_E,D,F,D, G,D, A,) z | .A,, z .D, z .=E, z .D, z | %467
 .A,, z .D, z .=E, z .D, z | .A,, z .D, z .E, z .D, z | .A,, z .D, z .E, z .D, z | %470
 .A,, z .D, z .E, z .D, z | .A,, z .D, z .E, z .D, z | .A,, z .D, z .E, z .D, z | %473
[K:treble] .d2 .c2 .B2 .A2 | .G2 ._F2[K:bass] .[A,E]2 .[G,D]2 | %475
 .[F,,F,]2 .[E,,E,]2 .[D,,D,]2 .[C,,C,]2 | .[_B,,,_B,,]2 .[A,,,A,,]2 .[G,,,G,,]2 .[F,,,F,,]2 | %477
"_basse en dehors" (D,2 _E,2 F,2 G,2) | (D,2 _E,2 F,2 G,2) | (D,2 _E,2 F,2 G,2) | %480
 (D,2 _E,2 F,2 G,2) | (D,2 _E,2 F,2 G,2) | (D,2 _E,2 F,2 G,2) | %483
!mp! !>![G,,,G,,]2 z .[G,,,G,,]!mp! !>![G,,,G,,]2 z2 | %484
!mp! !>![G,,,G,,]2 z .[G,,,G,,]!mp! !>![G,,,G,,]2 z2 | %485
!mp! !>![G,,,G,,]2 z .[G,,,G,,]!mp! !>![G,,,G,,]2 z2 | %486
!mp! !>![G,,,G,,]2 z .[G,,,G,,]!mp! !>![G,,,G,,]2 z2 | %487
!mp! !>![G,,,G,,]2 z .[G,,,G,,]!mp! !>![G,,,G,,]2 z2 | %488
!mp! !>![G,,,G,,]2 z .[G,,,G,,]!mp! !>![G,,,G,,]2 z2 | %489
!mp! !>![G,,,G,,]2 z .[G,,,G,,]!mp! !>![G,,,G,,]2 z2 | %490
!mp! !>![G,,,G,,]2 z .[G,,,G,,]!mp! !>![G,,,G,,]2 z2 | (C,D,_E,F, G,A,B,C | %492
[I:staff -1] D_EFG A_B c2) | %493
[I:staff +1] [D,,D,] z [G,,G,] z [!courtesy!=E,,!courtesy!=E,] z !tenuto!.[B,,,B,,]2 | %494
 [C,,C,] z [!courtesy!=F,,!courtesy!=F,] z [D,,D,] z !tenuto!.[A,,,A,,]2 | %495
 [G,,,G,,] z [C,,C,] z [A,,,A,,] z !tenuto!.[E,,,E,,]2 | %496
 [G,,,G,,] z [A,,,A,,] z [D,,,D,,]2- [D,,,D,,][K:treble] (^G | A2 D2) (E^F ^G) z | %498
 (^F2 E2 D2- D) z |[K:bass] z2 (D,2 _E,2 F,2) | z2 (D,2 _E,2 F,2) | z2 (D,2 _E,2 F,2) | %502
 z2 (D,2 _E,2 F,2) |[K:treble] ([^G!courtesy!=B!courtesy!=e]2 [A^c^f]) z ([E^Gc]2 [^FA^d]) z | %504
 ([^CEA]2 [^D^FB]) z ([A,CF]2 [B,D^G]) z | %505
[K:bass] !tenuto!.[^G,,,^G,,]2 !tenuto!.[^C,,^C,]2 !tenuto!.[^D,,^D,]2 !tenuto!.[C,,C,]2 | %506
 !tenuto!.[B,,,B,,]2 !tenuto!.[A,,,A,,]2 !tenuto!.[^F,,,^F,,]2 !tenuto!.[E,,,E,,]2 | x2 x2 x4 | %508
 x8 | (E,^F,G,A, G,F, E,) z | z (A, G,A, G,) z[K:treble] z (^c | d2 A2 G) z z (^c | %512
 d2 A2 G) z z (^c | d2 A2 G) z z (^c | d2 A2 G) z[K:bass] z A, | A,2 A,2 A,2 z A, | %516
 A,2 A,2 A,2 z A, | A,2 A,2 A,2 z A, | A,2 A,2 A,2 z"_m.g. en dehors" (^C | B,2 ^F,2 B,2) z (^C | %520
 B,2 ^F,2 B,2) z (^C | B,2 ^F,2 B,2) z (^C | B,2 ^F,2 B,2) z ^C, | (!>!B,4 B,2) x z | %524
"^rit." (!>!B,4 B,2) x z |"^très lent" (!>!B,4 B,2) x z | (!>!B,4 B,2) x z | x8 | x2 x2 x4 | x8 | %530
 x8 | (D,^C,E,C, ^F,C, ^G,) z | (D,^C,E,C, ^F,C, ^G,) z | (D,^C,E,C, ^F,C, ^G,) z | %534
 (D,^C,E,C, ^F,C, ^G,) z | %535
 z !tenuto!.[E,,E,]2 !tenuto!.[D,,D,]2 !tenuto!.[!courtesy!=C,,!courtesy!=C,] !breath!!tenuto!.[B,,,B,,]2 | %536
 x8 | x2 x2 x4 | x8 | x8 | x8 | ([E,,E,]2 [D,,D,]2) ([B,,,B,,]2 [C,,C,]2) | %542
 ([D,,D,]2 [A,,,A,,]2) ([^F,,,^F,,]2 [B,,,B,,]2) |!p!!ped![I:staff -1] B,A,^CA, ^DA,EA, | %544
 B,A,^CA, ^DA,EA, |[I:staff +1] x8 | x8!ped-up! | (G,!courtesy!=F,A,F, B,F,!courtesy!=CF, | %548
 G,F,A,F, B,F,CF, | G,F,A,F, B,F,CF, | G,F,A,F, B,F, C) z | %551
 !tenuto!.[D,F,A,D]2 !tenuto!.[E,G,B,E]2 !tenuto!.[F,A,CF]2 !tenuto!.[G,B,DG]2 | %552
 !tenuto!.[D,F,A,D]2 !tenuto!.[E,G,B,E]2!<(! !tenuto!.[F,A,CF]2 !tenuto!.[G,B,DG]2 | %553
 !tenuto!.[D,F,A,D]2 !tenuto!.[E,G,B,E]2 !tenuto!.[F,A,CF]2 !tenuto!.[G,B,DG]2!<)! | %554
!f![I:staff -1] !tenuto!.[DFAd]2 !tenuto!.[EGBe]2 !tenuto!.[FAcf]2 !tenuto!.[GBdg]2 | %555
 !tenuto!.[A,DFA]2 !tenuto!.[_B,EG_B]2 !tenuto!.[CFAc]2 !tenuto!.[DGBd]2 | %556
"^rall."!<(![I:staff +1] !tenuto!.[D,G,_B,D]2 !tenuto!.[_E,A,C_E]2 !tenuto!.[F,B,DF]2 !breath!!tenuto!.[G,CEG]2!<)! | %557
 (^F,2 G,2 A,2 B,2) | (^F,2 G,2 A,2 B,2) | (^F,2 G,2 A,2 B,2) | (^F,2 G,2 A,2 B,2) | %561
[K:treble] (^F2 G2 A2 B2) | (B,2 !courtesy!=C2 D2 E2) |[K:bass] (E,2 !courtesy!=F,2 G,2 A,2) | %564
 (A,,2 _B,,2 C,2 !breath!D,2) |"_m.g. en dehors" ([!courtesy!=D,^F,]2 [E,G,]2 [F,A,]2 [G,B,]2) | %566
 ([D,^F,]2 [E,G,]2 [F,A,]2 [G,B,]2) | ([D,^F,]2 [E,G,]2 [F,A,]2 [G,B,]2) | %568
 ([D,^F,]2 [E,G,]2 [F,A,]2 [G,B,]2) |!p! !>![D,,D,]2 z .[D,,D,]!p! !>![D,,D,]2 z2 | %570
!p! !>![D,,D,]2 z .[D,,D,]!p! !>![D,,D,]2 z2 |!p! !>![D,,D,]2 z .[D,,D,]!p! !>![D,,D,]2 z2 | %572
!p! !>![D,,D,]2 z .[D,,D,]!p! !>![D,,D,]2 z2 |!p! !>![D,,D,]2 z .[D,,D,]!p! !>![D,,D,]2 z2 | %574
!p! !>![D,,D,]2 z .[D,,D,]!p! !>![D,,D,]2 z2 | x8 | x8 | z2"^expressif" (A,B, D2) (B,C | %578
 E2) (A,B, D2) (B,C | E2) (A,B, D2) (B,C | E2) (A,B, D2) z2 |[K:treble] !>!A,4- A,2 z2 | %582
 !>!A,4- A,2 z2 | !>!A,4- A,2 z2 | !>!A,4- A,2 z2 |[K:bass] !>!D,4- D,2 z2 | !>!D,4- D,2 z2 | %587
 !>!D,4- D,2 z2 | !>!D,4- D,2 z2 | !>!G,,4- G,,2 z2 | !>!G,,4- G,,2 z2 | !>!G,,4- G,,2 z2 | %592
 !>!G,,4- G,,2 z ([A,,,A,,] | [B,,,B,,]2 [C,,C,]2 [D,,D,]2) z ([A,,,A,,] | %594
 [B,,,B,,]2 [C,,C,]2 [D,,D,]2) z ([A,,,A,,] | [B,,,B,,]2 [C,,C,]2 [D,,D,]2) z"^subito" ([A,,,A,,] | %596
 [B,,,B,,]2 [C,,C,]2 [D,,D,]2) z ^C | D2 G,2 A,B, ^C z | B,2 A,2 G,2- G, z | C4 D2 B,2 | %600
 G,4 A,2 ^F,2 | D,4 E,2 ^C,2 | %602
 !tenuto!.[E,,,E,,]2 !tenuto!.[A,,,A,,]2 !tenuto!.[!courtesy!=F,,,!courtesy!=F,,]2 !tenuto!.[G,,,G,,]2 | %603
 ([DF]2 [CE]) z ([_B,D]2 [A,C]) z | ([G,_B,]2 [F,A,]) z ([_E,G,]2 [D,F,]) x | (3CDE x2 x4 | x8 | %607
 x8 | x8 | ([A,!courtesy!=C]2 [G,_B,]2 [^F,A,]2 [=E,G,]2) | %610
 ([D,,D,]2 [E,,E,]) z ([B,,,B,,]2 [^C,,^C,]) z | %611
 ([A,,,A,,]2 [B,,,B,,]) z ([G,,,G,,]2 [A,,,A,,]) z | .D, z .D,, z .D, z .D,, z | %613
"^subito" .D, z .D,, z .D, z .D,, z | .D, z .D,, z .D, z .D,, z | .^C, z .^C,, z .C, z .C,, z | %616
 .B,, z .B,,, z .B,, z z2 |"_léger" .[^C,,^C,]2 .[E,,E,]2 .[^F,,^F,]2 .[E,,E,]2 | %618
 .[A,,A,]2 .[A,,,A,,]2 !>![B,,,B,,]3 .[^C,,^C,] | .[E,,E,]2 .[D,,D,]2 .[^F,,^F,]2 .[^F,,,F,,]2 | %620
 .[G,,,G,,]2 .[A,,,A,,]2 .[B,,,B,,]2 .[^C,,^C,]2 | .[^G,,^G,]2 .[B,,B,]2 .[^C,^C]2 .[B,,B,]2 | %622
 .[E,E]2 .[E,,E,]2 !>![^F,,^F,]3 .[^G,,^G,] | .[B,,B,]2 .[A,,A,]2 .[^C,^C]2 .[^C,,C,]2 | %624
 .[D,,D,]2 .[E,,E,]2 .[^F,,^F,]2 .[^G,,^G,]2 |[K:treble] (^C2 ^D2 E2 D2) | (E2 ^F2 G2 F2) | %627
 (A2 B2 !courtesy!=c2 B2) |[K:bass] !>![F,A,]4 !>![F,A,]4 | !>![F,A,]4 !>![E,G,]4 | %630
 !>![D,F,]4 !>![C,E,]2- [C,E,] z |[K:treble] .A2 .G2 .^F2 .E2 | %632
[K:bass] .D2 .!courtesy!=C2 .B,2 .A,2 | .[C,C]2 .[B,,B,]2 .[A,,A,]2 .[G,,G,]2 | %634
 .[F,,F,]2 .[E,,E,]2 .[D,,D,]2 .[C,,C,]2 | !>!A,4 !>!A,4 | !>!A,4 !>!A,4 | %637
 !tenuto!.[B,,E,G,B,]2 !tenuto!.[C,^F,A,C]2 !tenuto!.[D,G,B,D]2 !tenuto!.[E,A,CE]2 | %638
 !tenuto!.[B,,E,G,B,]2 !tenuto!.[C,^F,A,C]2 !tenuto!.[D,G,B,D]2 !tenuto!.[E,A,CE]2 | x8 | x8 | %641
 x2 x2 x4 | x8 | !tenuto!.D4- D2 !tenuto!.^C2 | !tenuto!.B,4 !tenuto!.^C4 | !>!D8 | %646
 !tenuto!.D,4- D,2 z2 | ([G,B,]2 [A,C]2 [B,D]2 [CE]2) | ([G,B,]2 [A,C]2 [B,D]2 [CE]2) | %649
 ([E,,E,]2 [^F,,^F,]2 [G,,G,]2 [A,,A,]2) | ([E,,E,]2 [^F,,^F,]2 [G,,G,]2 [A,,A,]2) | %651
 !tenuto!.[B,,E,G,B,]2 !tenuto!.[C,^F,A,C]2 !tenuto!.[D,G,B,D]2 !tenuto!.[E,A,CE]2 | %652
 !tenuto!.[B,,E,G,B,]2 !tenuto!.[C,^F,A,C]2 !tenuto!.[D,G,B,D]2 !tenuto!.[E,A,CE]2 | %653
 ([D,^F,]2 [E,G,]2"^accel." [F,A,]2 [G,B,]2) | ([D,^F,]2 [E,G,]2 [F,A,]2 [G,B,]2) | %655
 .[E,,E,]2 .[D,,D,]2 .[C,,C,]2 .[B,,,B,,]2 | .[C,,C,]2 .[B,,,B,,]2 .[A,,,A,,]2 .[G,,,G,,]2 | %657
 .[A,,,A,,]2 .[A,,,A,,]2 .[A,,,A,,]2 .[A,,,A,,]2 | %658
 .[A,,,A,,]2 .[A,,,A,,]2 .[A,,,A,,]2 .[A,,,A,,]2 | %659
 .[A,,,A,,]2"^accel." .[A,,,A,,]2 .[A,,,A,,]2 .[A,,,A,,]2 | %660
 .[A,,,A,,]2 .[A,,,A,,]2 .[A,,,A,,]2 .[A,,,A,,]2 | %661
 .[A,,,A,,]2"^lent" .[A,,,A,,]2 .[A,,,A,,]2 .[A,,,A,,]2 | %662
 .[A,,,A,,]2 .[A,,,A,,]2 .[A,,,A,,]2 .[A,,,A,,]2 | %663
 .[A,,,A,,]2 .[A,,,A,,]2 .[A,,,A,,]2 .[A,,,A,,]2 | %664
 .[A,,,A,,]2"^a tempo" .[A,,,A,,]2 .[A,,,A,,]2 .[A,,,A,,]2 | %665
 .[A,,,A,,]2 .[A,,,A,,]2 .[A,,,A,,]2 .[A,,,A,,]2 | %666
 .[A,,,A,,]2 .[A,,,A,,]2 .[A,,,A,,]2 .[A,,,A,,]2 | %667
 .[A,,,A,,]2 .[A,,,A,,]2 .[A,,,A,,]2 .[A,,,A,,]2 | %668
 .[B,,,B,,]2 .[B,,,B,,]2 .[B,,,B,,]2 .[B,,,B,,]2 | %669
 .[B,,,B,,]2 .[B,,,B,,]2 .[B,,,B,,]2 .[B,,,B,,]2 | %670
 .[B,,,B,,]2 .[B,,,B,,]2 .[B,,,B,,]2 .[B,,,B,,]2 | %671
 .[B,,,B,,]2 .[B,,,B,,]2 .[B,,,B,,]2 .[B,,,B,,]2 | %672
 .[A,,,A,,]2 .[A,,,A,,]2 .[A,,,A,,]2 .[A,,,A,,]2 | %673
 .[A,,,A,,]2 .[A,,,A,,]2 .[A,,,A,,]2 .[A,,,A,,]2 | %674
 .[^E,,,^E,,]2 .[^F,,,^F,,]2 .[E,,,E,,]2 .[F,,,F,,]2 | %675
 .[^E,,,^E,,]2 .[^F,,,^F,,]2 .[E,,,E,,]2 .[F,,,F,,]2 |] %676
V:4
 .A,,,z.A,,, z | .A,,,z.A,,, z | .B,,,z.B,,, z | .B,,,z.B,,, z | .^C,,z.C,, z | .^C,,z.C,, z | %6
 .^D,,z.D,, z | .^D,,z.D,, z | .^C,,z.C,, z | .^C,,z.C,, z |[K:treble] (^F^CE!pp!B, | ^F^CGB, | %12
 ^F^CEB,) |[K:bass] z (B, A,2) | (^F,2 E,2 | B,2) (^F,B,,) | (D,^D,) (E,!courtesy!=F,) | %17
 !>!B,,2 x2 | x4 | x4 | x4 | x4 | x4 | x4 | x4 | .[G,,G,].[F,,F,].[E,,E,].[D,,D,] | x4 | x4 | x4 | %29
 x4 | x4 | x4 | x4 | x4 | x4 | x4 | x4 | x4 | (^F,A, ^G,2 | A,B,D,^C, | B,,C, D,) z | .D, z z2 | %42
 .D, z z2 | .E,,.B,,.^C,.E, | x4 | !>!A,4 | !>!A,4 | !>!A,4 | !>!A,4 | !>!D4 | !>!D4 | !>!D4 | %52
 !>!=C2 !>!B,2 |[K:treble] !>!D4 | !>!D4 | !>!D4 |[K:bass] !>!A,2 !>!!fermata!G,2 | %57
 !>!!fermata!A,2 !>!!fermata!B,2 | (B,A,B,A,) |[K:treble] (EDED) |[K:bass] (F,2 E,) z | %61
 (_B,,2 A,,2) | !>!D,4 | x4 | x4 | x4 | A,E,G,D, | A,E,_B,E, | B,E,G,D, |[K:treble] z (G F2) | %70
 z (E D2) | z (^C B,2) |[K:bass] x4 | x4 | x4 | x4 | x4 | x4 | x4 | x4 | x4 | x4 | x4 | x4 | %84
 E,^E, ^F,!courtesy!=G, | !>!^C,2 x2 | x4 | .D,,z.D,, z | .D,,z.D,, z | .E,,z.E,, z | .E,,z.E,, z | %91
 .^F,,z.F,, z | .^F,,z.F,, z | .^G,,z.G,, z | .^G,,z.G,, z | .^F,,z.F,, z | .^F,,z.F,, z | %97
 (D,!courtesy!=F, E,2 | F,G,_B,,A,, | G,,A,, _B,,) z | .B,, z z2 | ._B,, z z2 |[K:treble] !>!B,4 | %103
 !>!_B,4 | !>!_B,4 | !>!_B,4 | !>!_B,4 |[K:bass] x4 | x4 | x4 | x4 | x4 | %112
 !>!!courtesy!=F,2 !>!_E,2 | !>!F,2 !>!G,2 |[K:treble] (GFGF) | (c_BcB) |[K:bass] x4 | x4 | x4 | %119
 x4 | x4 | x4 | x4 | x4 | x4 | x4 | x4 | x4 | x4 | x4 | x4 | x4 | x4 | .C,,z.C,, z | .C,,z.C,, z | %135
 .D,,z.D,, z | .D,,z.D,, z | .E,,z.E,, z | .E,,z.E,, z | .^F,,z.F,, z | .^F,,z.F,, z | %141
 .E,,z.E,, z | .D,,z.D,, z | .^C,,z.C,, z |[K:treble] (^F^CEB, | ^F^CGC | ^F^CEB,) | (^F^CEB, | %148
 ^F^CGC | ^F^CEB,) | (^F^CEB, | ^F^CGC | ^F^CEB,) |[K:bass] .A,,,z.A,,, z | .A,,,z.A,,, z | %155
 .B,,,z.B,,, z | .B,,,z.B,,, z | .^C,,z.C,, z | .^C,,z.C,, z | .^D,,z.D,, z | .^D,,z.D,, z | %161
 .^C,,z.C,, z | .^C,,z.C,, z ||[M:3/4] z/ (^C,/D,/E,/ ^F,/G,/A,/B,/[I:staff -1] ^C/D/E/^F/) | x6 | %165
 x6 | x6 | x2[I:staff +1] (B,A,G,^F, |[K:treble] D^CDCB,E) |[K:bass] (^C,^F,,) (B,,E,,) (C,F,,) | %170
 x6 | x6 |[K:treble] (3(^CDE ^F4- | F2- F) x3 |[K:bass] ^D,6- | D,4- D, z |] %176
[M:6/8] (B,,,2 ^C,, A,,2 G,,) | (B,,,2 ^C,, A,,2 G,,) | (B,,,2 ^C,, A,,2 G,,) | %179
 (B,,,2 ^C,, A,,2 G,,) | (B,,^C,D, E,^F,G, | G,A,B, !courtesy!=CDE) | x6 | x6 | %184
 (G,2 A,) (^F,2 G,) | !tenuto!.^F,2 z[K:treble] (D3 | ^C3 B,3 | D2) z x x2 |[K:bass] x3 A,G,^F, | %189
 E,2 z x3 | x6 | x6 | x6 | x6 | x6 | x6 | !>!A,3 !>!G,2 x | x6 | x6 | x6 | x6 | x6 | x6 | x6 | x6 | %205
 x6 |[K:treble] ^F2 E F2 z | x6 | x6 |[I:staff -1] .[dg]2 .[dg] .[dg]2 .[dg] | %210
 .[cf]2 .[cf] .[cf]2 .[cf] | .[_B_e]2 .[Be] .[Be]2 .[Be] |[I:staff +1][K:bass] x6 | x6 | x6 | x6 | %216
 x6 | x6 | x6 | x6 | x6 | x6 | D,E,^F, G,A,B, | x3 (B,,3 | E,2) x (C,3 | E,^F,G, A,2) z | %226
 (_B,,3 C,2) z | x6 | x6 | x6 | %230
 .[G,,,G,,].[!courtesy!=F,,,!courtesy!=F,,].[D,,,D,,] !>![E,,,E,,]2 z | x6 | x6 | %233
[I:staff -1] (^F2 ^G e2 d) | (^F2 ^G e2 d) | (E2 ^F d2 c) | (D2 E c2 _B) | x6 | x6 | x6 | x6 | x6 | %242
 x6 | x6 | x6 | x6 | x6 |[I:staff +1] (_E,2 C, _D,2) z | (C,2 !courtesy!=A,, _B,,2) z | x6 | %250
[K:treble] (_B,2 C) (A,2 B,) | A,2 _B, C2 z |[K:bass] (F,2 G,) (E,2 F,) | %253
 !tenuto!.E,2 .F, !tenuto!.G,2 x |[K:treble] (c2 A _B2) z | x6 | x6 | x6 | x6 |[K:bass] x6 | x6 | %261
 x6 | x6 | x6 | _A,_B,G, F,B,A, | (G,3 _A,2) x | x6 | x6 | x6 | x6 | x6 | x6 | x6 | x6 | x6 | %275
[I:staff -1] !>![Ad]2 .[Ad] !>![Ad]2 .[Ad] | !>![Gc]2 .[Gc] !>![Gc]2 .[Gc] | (EDE) (E^FE) | %278
 (EDE) (E^FE) | (EDE) (E^FE) | (EDE) (E^FE) | (^CB,C) (C^DC) | (^CB,C) (C^DC) | (^CB,C) (C^DC) | %284
 (^CB,C) (C^DC) | (^FEF) (F^GF) | (^FEF) (F^GF) | (^FEF) (!tenuto!F!tenuto!^G!tenuto!F) | %288
 (^FEF) (F^GF) | x6 | x6 | x6 | x6 | x6 | x6 | x6 | x6 | x6 | x6 | x6 | x6 | x6 | x6 | x6 | x6 | %305
 x6 | x6 | (e^f^g efg) | (!courtesy!=cde cde) | (AB^c ABc) | (!courtesy!=FGA FGA) | %311
[I:staff +1] (F,2 G,) (E,2 F,) | !tenuto!.E,2 .F, !tenuto!.G,2 z | (C,2 D,) (B,,2 C,) | %314
 !tenuto!.B,,2 .C, !tenuto!.D,2 z | x6 | x6 | G,,A,,_B,, C,D,_E, | x6 |[K:treble] x6 | x6 | x6 | %322
 x6 | x6 | x6 | x6 | x6 | x6 | x6 | x6 | x6 | x ([EG]^F) x ([DF]E) |[K:bass] (!>!^F,3 !>!E,2) z | %333
 x6 | x6 | x6 | x6 | x6 | x6 | x6 | x6 | (!>!G,3 !>!F,2) z | (!>!D,3 !>!C,2) z | x6 | x6 | x6 | %346
 x6 | x6 | (C,6 | F,3- F,2) z | (C,6 | F,3- F,2) z | ^F,6- | F,3- F,2 z | ^F,6- | F,3- F,2 z | %356
 ^F,6- | F,3- F,2 z | ^F,6- | F,3- F,2 z |[K:treble] (^F2 G A2) z | (^F2 G A2) z | (^F2 G A2) z | %363
 (^F2 G A2) z | (^F2 G A2) z | (^F2 G A2) z |[K:bass] x6 | x6 |[K:treble] (^F2 G A2) z | %369
 (^F2 G A2) z | (^F2 G A2) z | (^F2 G A2) z |[K:bass] x6 | x6 | x6 |[K:treble] (^F2 G A2) z | %376
 (^F2 G A2) z | (^F2 G A2) z | (^F2 G A2) z | (^F2 G A2) z | (^F2 G A3- | A3- A2) z |] %382
[M:4/4][K:bass] x8 | x8 | x8 | x8 | x8 | x8 | x8 | x8 | x8 | x8 | x8 | x6[K:treble] x (B | %394
 A2 E2 A2) z (B | A2 E2 A2) z (B | A2 E2 A2) z (B | A2 E2 A2)[K:bass] x2 | x8 | x8 | x8 | x8 | x8 | %403
 x8 | x8 | x8 | x8 | x8 | x8 | x8 | x8 | x8 | x6[K:treble] x (B | E2 ^F2) (^GA B) z | %414
 (^F2 ^G2 FE D) z |[K:bass] x8 | x8 | x8 | %418
 !>![!courtesy!=C,,!courtesy!=C,]2 z .[C,,C,] !>![C,,C,]2 z2 | %419
 !>![C,,C,]2 z .[C,,C,] !>![C,,C,]2 z2 | !>![C,,C,]2 z .[C,,C,] !>![C,,C,]2 z2 | %421
 !>![C,,C,]2 z .[C,,C,] !>![C,,C,]2 z2 | !>![C,,C,]2 z .[C,,C,] !>![C,,C,]2 z2 | %423
 !>![C,,C,]2 z .[C,,C,] !>![C,,C,]2 z2 | x8 |[K:treble] !>!E4- E2 z2 | x8 | x4[K:bass] x4 | x8 | %429
 x8 | x8 | x8 | x8 | x8 | x8 | x8 | x8 | x8 | x8 | x8 | x8 |[K:treble] (E2 D2 ^C2 E2) | %442
[K:bass] (A,2 !courtesy!=G,2 ^F,2 A,2) | (D,2 !courtesy!=C,2 B,,2 D,2) | %444
 ([A,,,A,,]2 [B,,,B,,]2) ([A,,,A,,]2 [B,,,B,,]2) | ([A,,,A,,]2 [B,,,B,,]2) ([D,,D,]2 [E,,E,]2) | %446
 x8 | x8 | x8 | x8 | x8 | x8 | x8 | x8 | (_B,,C,_D,_E, F,G,_A,_B, | %455
 [CE]2) ([!courtesy!=A,C]2 G,A, B,2) | x8 | x8 | x8 | x8 | x8 | x8 | x8 | x8 | x8 | x8 | %466
 !>!D,,4- D,,2 z2 | !>!D,,4- D,,2 z2 | !>!D,,4- D,,2 z2 | !>!D,,4- D,,2 z2 | !>!D,,4- D,,2 z2 | %471
 !>!D,,4- D,,2 z2 | !>!D,,4- D,,2 z2 |[K:treble] .G2 .=F2 .E2 .D2 | .C2 ._B,2[K:bass] x4 | x8 | %476
 x8 | x8 | x8 | x8 | x8 | x8 | x8 | x8 | x8 | x8 | x8 | x8 | x8 | x8 | x8 | x8 | x8 | x8 | x8 | %495
 x8 | x7[K:treble] (E | A,2 B,2) (^CD E) z | B,2 ^C2 B,A, G, z | %499
[K:bass] !>!!courtesy!=C,4- C,2 z2 | !>!C,4- C,2 z2 | C,4- C,2 z2 | !>!C,4- C,2 z2 |[K:treble] x8 | %504
 x8 |[K:bass] x8 | x8 | x8 | x8 | z .[C,,C,] .[D,,D,].[E,,E,] .[D,,D,].[C,,C,] .[B,,,B,,] x | %510
 x6[K:treble] z (A | G2 D2 G) z z (A | G2 D2 G) z z (A | G2 D2 G) z z (A | %514
 G2 D2 G) z[K:bass] z (^F, | E,2 B,,2 E,2) z (^F, | E,2 B,,2 E,2) z (^F, | E,2 B,,2 E,2) z (^F, | %518
 E,2 B,,2 E,2) x2 | x8 | x8 | x8 | x8 | B,,2 ^F,,2 B,,2 z (^C, | B,,2 ^F,,2 B,,2) z (^C, | %525
 B,,2 ^F,,2 B,,2) z (^C, | B,,2 ^F,,2 B,,2) z2 | x8 | x8 | x8 | x8 | x8 | x8 | x8 | x8 | x8 | x8 | %537
 x8 | x8 | x8 | x8 | x8 | x8 | x8 | x8 | x8 | x8 | x8 | x8 | x8 | x8 | %551
 z !tenuto!.[C,,C,]2 !tenuto!.[C,,C,]2 !tenuto!.[C,,C,] !tenuto!.[C,,C,]2 | %552
 z !tenuto!.[C,,C,]2 !tenuto!.[C,,C,]2 !tenuto!.[C,,C,] !tenuto!.[C,,C,]2 | %553
 z !tenuto!.[C,,C,]2 !tenuto!.[C,,C,]2 !tenuto!.[C,,C,] !tenuto!.[C,,C,]2 | %554
 z !tenuto!.[A,,A,]2 !tenuto!.[G,,G,]2 !tenuto!.[F,,F,] !tenuto!.[E,,E,]2 | %555
 z !tenuto!.[D,,D,]2 !tenuto!.[C,,C,]2 !tenuto!.[_B,,,_B,,] !tenuto!.[A,,,A,,]2 | %556
 z !tenuto!.[G,,,G,,]2 !tenuto!.[F,,,F,,]2!fff! !tenuto!.[G,,,G,,] !tenuto!.[A,,,A,,]!ff!!fff!!tenuto![_B,,,_B,,] | %557
 x8 | x8 | x8 | x8 |[K:treble] x8 | x8 |[K:bass] x8 | x8 | (B,,2 ^C,2 D,2 E,2) | %566
 (B,,2 ^C,2 D,2 E,2) | (B,,2 ^C,2 D,2 E,2) | (B,,2 ^C,2 D,2 E,2) | x8 | x8 | x8 | x8 | x8 | x8 | %575
 x8 | x8 | x8 | x8 | x8 | x8 |[K:treble] ([^C^F]2 [DG]2 [CF]2) x2 | ([^C^F]2 [DG]2 [CF]2) x2 | %583
 ([^C^F]2 [DG]2 [CF]2) x2 | ([^C^F]2 [DG]2 [CF]2) x2 | %585
[K:bass] ([^F,B,]2 [G,!courtesy!=C]2 [F,B,]2) x2 | ([^F,B,]2 [G,C]2 [F,B,]2) x2 | %587
 ([^F,B,]2 [G,C]2 [F,B,]2) x2 | ([^F,B,]2 [G,C]2 [F,B,]2) x2 | %589
 ([B,,E,]2 [C,!courtesy!=F,]2 [B,,E,]2) x2 | ([B,,E,]2 [C,F,]2 [B,,E,]2) x2 | %591
 ([B,,E,]2 [C,F,]2 [B,,E,]2) x2 | ([B,,E,]2 [C,F,]2 [B,,E,]2) x2 | x6 x2 | x6 x2 | x6 x2 | %596
 x6 x (A, | D,2 E,2) (^F,G, A,) z | (E,2 ^F,2 E,D, !courtesy!=C,) z | (A,G, F,2 G,2 E,2) | %600
 (E,D, C,2 D,2 B,,2) | (B,,A,, G,,2 A,,2 ^F,,2) | x8 | x8 | x6 (3x A,=B, | %605
 [!courtesy!=E,G,] z x2 x4 | x8 | x8 | x8 | x8 | x8 | x8 | x8 | x8 | x8 | x8 | x8 | x8 | x8 | x8 | %620
 x8 | x8 | x8 | x8 | x8 |[K:treble] (B,2 A,2 ^G,2 B,2) | (!courtesy!=D2 !courtesy!=C2 B,2 D2) | %627
 (G2 !courtesy!=F2 E2 G2) |[K:bass] ([D,,D,]2 [E,,E,]2) ([D,,D,]2 [E,,E,]2) | %629
 ([D,,D,]2 [E,,E,]2) ([C,,C,]2 [D,,D,]2) | ([_B,,,_B,,]2 [C,,C,]2) !>![A,,,A,,]2- [A,,,A,,] z | %631
[K:treble] .D2 .C2 .B,2 .A,2 |[K:bass] .G,2 .!courtesy!=F,2 .E,2 .D,2 | x8 | x8 | %635
 ([A,,,A,,]2 [G,,,G,,]2 [A,,,A,,]2 [G,,,G,,]2 | [A,,,A,,]2 [G,,,G,,]2 [A,,,A,,]2 [G,,,G,,]2) | %637
 !>![D,,D,]4 !>![A,,,A,,]4 | !>![D,,D,]4 !>![A,,,A,,]4 | x8 | x8 | x8 | x8 | x8 | x8 | x8 | x8 | %647
 (E,2 ^F,2 G,2 A,2) | (E,2 ^F,2 G,2 A,2) | x8 | x8 | %651
 !tenuto!.[E,,,E,,]2 !tenuto!.[^F,,,^F,,]2 !tenuto!.[G,,,G,,]2 !tenuto!.[A,,,A,,]2 | %652
 !tenuto!.[E,,,E,,]2 !tenuto!.[^F,,,^F,,]2 !tenuto!.[G,,,G,,]2 !tenuto!.[A,,,A,,]2 | %653
 (B,,2 C,2 D,2 E,2) | (B,,2 C,2 D,2 E,2) | x8 | x8 | x8 | x8 | x8 | x8 | x8 | x8 | x8 | x8 | x8 | %666
 x8 | x8 | x8 | x8 | x8 | x8 | x8 | x8 | x8 | x8 |] %676
V:5
 x4 | x4 | (D3 ^C | B,2- B,) z | (B,3 A, | G,2- G,) z | (A,3 G, | ^F,2- F,) z | !>!^F,2- F, z | %9
 x4 | x4 | x4 | x4 | z B A2 | (^GA)(AG | ^F) z F2 | !>!B,2 !>!!courtesy!=C2 | !>![Ee]2 ([B,^F]2 | %18
 [D^F][A,E] [E^G]2) | x4 | z (A, _B,!courtesy!=C) | [!courtesy!=F!courtesy!=f][Ee][Cc][Dd] | %22
 [Cc][A,A] [G,G]2 | (Ffed) | ([FA][_B,_B][DF][G,G]) | x4 | x4 | x4 | x4 | x4 | x4 | x4 | x4 | %33
[K:bass] x4 | x4 | x4 | x4 | x4 |[K:treble] A2 ^F2 | EDB,^C | !>!D4 | !>!D4 | !>!D4 | x4 | x4 | %45
 ^FEFE | ^FEFE | ^FEED | ^FEFE | !courtesy!=GAGA | GAGA | GAGA | !>![!courtesy!=F!courtesy!=f]4 | %53
 .^G.A.B.c | BcBc | BcBc | .[^ce].[ce].[Bd].[Bd] | .[^ce].[ce].[^d^f].[df] | (GBGB) | (cece) | %60
 !>!C2- C z | (D2 C2) | !>!F4 | [C_E]2 [CE]2 | [FG]2 [=E^G]2 | [DE]2 [^C^E]2 | x4 | x4 | x4 | %69
 z g f2 | z e d2 | z ^c B2 |[K:bass] x4 | x4 | x4 | x4 | x4 | x4 | x4 | x4 | x4 | x4 | %82
[K:treble] [G!courtesy!=B]2 [Gc]2 | [GB]2 [D^F]2 | !>!^C2 !>!=D2 | (!>![^F^f]2 [^C^G]2 | %86
 [E^G][B,^F] [F^A]2) |[K:bass] x4 | x4 |[K:treble] (G3 ^F | E2- E) z | (^E3 D | C2- C) z | %93
 (D3 !courtesy!=C | B,2- B,) z | !>!B,2- B, z | x4 | !courtesy!=F2 D2 | C_B,G,A, | !>!_B,4 | %100
 !>!_B,4 | !>!_B,4 | .E.F.G._A | G_AGA | G_AGA | G_AGA | GAGA | %107
[K:bass] ([_D,_D][_E,_E][F,F][_A,_A] | [G,G][F,F] [G,G]2) |[K:treble] [_Bc]2 [=A^c]2 | %110
 [GA]2 [^F^A]2 | [E^F]2 [^D^^F]2 | .[!courtesy!=A!courtesy!=c].[Ac].[G_B].[GB] | %113
 .[Ac].[Ac].[!courtesy!=Bd].[Bd] |!8va(! (_egeg) | (_ac'ac')!8va)! | %116
 (g/^f/!courtesy!=e/d/ c/B/A/G/ | ^F/E/D/C/[I:staff +1] B,/A,/G,/F,/) | x4 | x4 | x4 | x4 | x4 | %123
 x4 | x4 | x4 | x4 | x4 | x4 | x4 | x4 | x4 | x4 | x4 | x4 |[I:staff -1] (F3 E | D2- D) z | (D3 C | %138
 _B,2- B,) z | (C3 _B, | A,2- A,) z | !>!A,2- A, z | G,2- G, z | ^F,2- F, z | x4 | x4 | x4 | x4 | %148
 x4 | x4 | x4 | x4 | x4 | x4 | x4 | (D3 ^C | B,2- B,) z | (B,3 A, | G,2- G,) z | (A,3 G, | %160
 ^F,2- F,) z | !>!^F,2- F, z | !>!^F,2- F, z ||[M:3/4] x6 | %164
 !tenuto!.[^FA]2 !tenuto!.[A^c]2 !tenuto!.[Bd]2 | %165
 !tenuto!.[!courtesy!=ce]2 !tenuto!.[d^f]2 !tenuto!.[Bd]2 | %166
 !tenuto!.[!courtesy!=ce]2 !tenuto!.[d^f]2 x2 | z2 (BA A2) | (B2 A2 Be) | %169
[K:bass] (B,A,) (A,G,) (B,A,) |[K:treble] (^F2 [EG]G)[I:staff +1] [^C,,^G,,][B,,,^F,,] | %171
 !tenuto!.[A,,,E,,]"_expressif\nm.g. très en dehors" (^C, D,E,^F,G,) |[I:staff -1] (B2 ^c4- | %173
 c2- c) z z2 | x6 | z2 !>!^C2- C z |][M:6/8] x6 | x6 | x6 | x6 | x6 | x6 | x6 | x6 | B2 ^F A2 E | %185
 D2 z z2 (B | B^ce d2 g | B2) z G^FE | DCB, z2 C | B,2 z [CE]2 [A,D] | !>![G,B,]2 z !>![B,D]2 z | %191
 (B,2 C D).D.D | (!courtesy!=FED E2) x | (_EDC D2) x |[K:bass] (C!courtesy!=B,A, B,2) x | %195
[K:treble] [Ac]2 ([Fc] [Bd])[I:staff +1] EB, |[I:staff -1] z (ec) z (dB) | %197
 [A,C]2 ([G,_B,] [G,C]2) z | x6 | !>![A,D]2 z !>![DG]2 [EG] | [D^F]2 z [A,D]2 [B,D] | %201
 [A,^C]2 z .=F.E.D | !>!E2 .D .=C.B,.A, | !>!B,2 z !>!!courtesy!=D2 z | !>!E2 z !>!E2 z | %205
 !>!E2 z !>!A2 z | !>!d2 z !tenuto!.^c2 z | _EFG A_Bc | d2 .[dg] .[dg]2 .[dg] | x6 | x6 | x6 | %212
[I:staff +1] ([!courtesy!=B,,,!courtesy!=B,,]2 [E,,^F,,] [B,,,B,,]2 [E,,F,,]) | %213
 ([B,,,B,,]2 [E,,^F,,] [B,,,B,,]2 [E,,F,,]) | ([B,,,B,,]2 [E,,^F,,] [B,,,B,,]2 [E,,F,,]) | %215
 ([B,,,B,,]2 [E,,^F,,] [B,,,B,,]2 [E,,F,,]) | ([B,,,B,,]2 [E,,^F,,] [B,,,B,,]2 [E,,F,,]) | %217
 ([B,,,B,,]2 [E,,^F,,] [B,,,B,,]2 [E,,F,,]) | %218
 ([!courtesy!=C,,!courtesy!=C,]2 [!courtesy!=F,,G,,] [C,,C,]2 [F,,G,,]) | %219
 ([C,,C,]2 [F,,G,,] [C,,C,]2 [F,,G,,]) | ([A,,,A,,]2 [D,,E,,] [A,,,A,,]2 [D,,E,,]) | %221
 ([A,,,A,,]2 [D,,E,,] [A,,,A,,]2 [D,,E,,]) | x6 | x3[I:staff -1] D3 | B,2 z EDC | D^CD E2 z | %226
 (_D3 _A,2) (=B, | G,^F,G, .A,2) .A, | x6 | x6 | x6 | (^F2 ^G e2 d) | (^F2 ^G e2 d) | x6 | x6 | %235
 x6 | x6 | (D!courtesy!=EF GA_B | _Bcd _efg) | x6 | x6 | x6 | x6 |[K:bass] x6 | x6 | x6 | x6 | %247
[K:treble] x6 | x6 | x6 | (d2 A) (c2 G) | F2 G A2 z | A2 E G2 D | C2 D E2 x |!8va(! x6 | %255
 (d'2 _b c'2)!8va)! z | (!courtesy!=e2 ^c d2) z | (e2 ^c d2) z | (e2 ^c d2) z | x6 | x6 | x6 | x6 | %263
 x6 | _A2 _B Acf | _EFG _A2 F | F2 G F2[K:bass] _B, | _B,2!>(! C B,2 x!>)! | x6 | x6 | x6 | %271
 x5[K:treble] (B, | x6 | B2) .[Be] !>![Be]2 .[Be] | !>![Be]2 .[Be] !>![Be]2 .[Be] | x6 | x6 | x6 | %278
 x6 | x6 | x6 | x6 | x6 | x6 | x6 | x6 | x6 | x6 | x6 | %289
 z[I:staff +1] ([E,!courtesy!=G,][D,^F,])[I:staff -1] z[I:staff +1] ([A,,E,][G,,D,]) | %290
[I:staff -1] z[I:staff +1] ([D,^F,][E,G,])[I:staff -1] z[I:staff +1] ([F,A,][E,G,]) | %291
[I:staff -1] z[I:staff +1] ([^C,E,][B,,D,])[I:staff -1] z[I:staff +1] ([^F,A,]E,) | %292
[I:staff -1] z[I:staff +1] ([E,G,][D,^F,])[I:staff -1] z[I:staff +1] ([A,,E,][G,,D,]) | x6 | x6 | %295
 x6 | x6 | x6 | x6 | x6 | x6 | x6 | x6 | x6 | x6 | x6 | x6 | x6 | x6 | x6 | x6 | %311
[I:staff -1] A2 E G2 D | C2 D E2 z | E2 B, D2 A, | G,2 A, B,2 x | %315
[I:staff +1] ([A,,,A,,]2 [D,,E,,] [A,,,A,,]2 [D,,E,,]) | %316
 ([A,,,A,,]2 [D,,E,,] [A,,,A,,]2 [D,,E,,]) | x6 | x6 | x6 | x6 | x6 | x6 | x6 | x6 | x6 | x6 | x6 | %328
 x6 | x6 | x6 |[I:staff -1] (!>!B3 !>!A2) z | (!>!^F3 !>!E2) z | x6 | x6 | x6 | x6 | x6 | x6 | x6 | %340
 x6 | (!>!G3 !>!F2) z | (!>!D3 !>!C2) z | x6 | x6 | x6 | x6 | x6 | !>!E6 | !>!E6 | !>!E6 | !>!E6 | %352
 !>!D6- | D3- D2 z | !>!D6- | D3- D2 z | !>!D6- | D3- D2 z | !>!D6- | D3- D2 x | (^e3 ^f2) z | %361
 (^e3 ^f2 x | ^e3 ^f2) z | (^e3 ^f2) z | (^e3 ^f2 x | ^e3 ^f2) z | x6 | x6 | (^e3 ^f2) z | %369
 (^e3 ^f2 x | ^e3 ^f2) z | (^e3 ^f2) x | A,3 B,3 | A,3 G,2 ^F, | D,2 z D,2 z | (^e3 ^f2 x | %376
 ^e3 ^f2) z | (^e3 ^f2) z | (^e3 ^f2 x | ^e3 ^f2) z | (^e3 ^f3- | f3- f2) x |][M:4/4] x8 | x8 | %384
 x8 | x8 | x8 | x8 | (B,C D2) ([B,D]2 [G,C]2) |[K:bass] (A,B, C2) (D,E, ^F,2) |[K:treble] x8 | x8 | %392
 DCEC ^FCGC | DCEC ^FC x (a | a2 a2 a2) z (a | a2 a2 a2) z (a | a2 a2 a2) z (a | a2 a2 a2) x2 | %398
 (CA,B,G, A,^F,) z2 | (CA,B,G, A,^F,) z2 | (CA,B,G, A,^F,) z2 | (CA,B,G, A,^F,) z (B, | %402
 [A,D]2 [G,A,]2 [^F,B,]2) x (B, | [A,D]2 [G,A,]2 [^F,B,]2) x (B, | [A,D]2 [G,A,]2 [^F,B,]2) x (B, | %405
 [A,D]2 [G,A,]2 [^F,B,]2) x2 | x8 | z2 (DE F2) (CD | E) (F EF E) z z2 | %409
[K:bass] (_B,G,A,F, G,E,) x2 | (_B,G,A,F, G,E,) x2 | (_B,G,A,F, G,E,) x2 | %412
 (_B,G,A,F, G,E,)[K:treble] x (^f | ^g2 a2) (g^f f) (f | ^f2 e2 =de f) z | %415
 z!f! .[CE] z!f! .[C!courtesy!=F] z!f! .[DF] !tenuto!.[CE]2 | ([^FA]2 [EG]2 [^DF]2 [^CE]2) | %417
[I:staff +1] ([B,!courtesy!=D]2 [A,!courtesy!=C]2 [^G,B,]2 [^F,A,]2) | x8 | x8 | x8 | x8 | x8 | %423
 x8 |[I:staff -1] (A2 B) z (^c2 d) z | z2 ([da]2 [eb]2 [^f!courtesy!=c']2) | %426
 (g2 a) z (e2 !courtesy!=f) z | (c2 d) z (A2 B) z |[K:bass] x8 | _A,4- A,2 _B,2 | C4- C2 x2 | x8 | %432
 A,4- A,[K:treble] x x2 | x8 | x8 | x8 | x7[K:bass] x | x8 | x8 | x8 | x8 |[K:treble] (B4 b2 ^f2) | %442
 (E4 e2 B2) | (A,4 A2 E2) | x8 | x8 | !>![B,D]4 !>![AB]2- [AB] x | x8 | x8 | x8 | x8 | x8 | x8 | %453
 x8 | x8 | x2 (E2 E^F G2) | ([EA]2 [^FB]2 [Ad]2 [Be]2) | ([eg]2 [d^f]2 [ce]2) z2 | %458
 (_EDFD GD _B) z | (_EDFD GD _B) z | (_EDFD GD _B) z | (_EDFD GD _B) z | x8 | x8 | x8 | x8 | %466
 !>!D4- D2 z2 | !>!D4- D2 z2 |[K:bass] x4[K:treble] x4 | x8 | x8 | %471
 z2!mf! .[A,A] z z2!mf! .[B,B] z | z2!mf! .[Cc] z z2 .[Dd] z | (e2 !courtesy!=f2) (c2 d2) | %474
 (A2 _B2) (!courtesy!=F2 G2) |[K:bass] .C.A,.G,.C .A,.G, C z | .F,.D,.C,.F, .D,.C, F, z | %477
[K:treble] x8 | x8 | x8 | x8 | x8 | x8 | x8 | x8 | x8 | x8 | x8 | x8 | x8 | x8 | x8 | x8 | %493
 z!f! [D^F] z!f! [DG] z!f! [!courtesy!=EG] [DF]2 | z!f! [CE] z!f! [C!courtesy!=F] z!f! [DF] [CE]2 | %495
 z!f! [G,B,] z!f! [G,C] z!f! [A,C] [G,B,]2 | %496
[K:bass] z!f! [G,B,] z!f! [E,G,] [^F,A,]2- [F,A,][K:treble] (B | ^c2 d2) (cB B) (B | %498
 B2 A2 =GA B) z | z2 ([_B,!courtesy!=F]2 [=CG]2 [D_A]2) | z2 ([_B,F]2 [CG]2 [D_A]2) | %501
 z2 ([_B,F]2 [CG]2 [D_A]2) | z2 ([_B,F]2 [CG]2 [D_A]2) | (!courtesy!=b2 ^c') z (^g2 a) z | %504
 (e2 ^f) z (^c2 ^d) z | x8 | x8 | z2 (E^F G2) (DE | ^F) (G FG F) z z2 | x8 | x6 z (^f | %511
 e2 B2 e) z z (^f | e2 B2 e) z z (^f | e2 B2 e) z z (^f | e2 B2 e) z z E | E2 E2 E2 z E | %516
 E2 E2 E2 z E | E2 E2 E2 z E | E2 E2 E2 x2 | x8 | x8 | x8 | x8 | x8 | x8 | x8 | x8 | %527
 (D^CEC ^FC A) z | (D^CEC ^FC A) z | (D^CEC ^FC A) z | (D^CEC ^FC A) z | x8 | x8 | x8 | x8 | x8 | %536
 (e2 ^f2 g2 a2) | (e2 ^f2 g2 a2) | (e2 ^f2 g2 a2) | (e2 d2 c2 B2) | (A2 G2 ^F2 E2) | %541
 (B,C D2) ([B,D]2 [G,C]2) |[K:bass] (A,B, C2) (D,E, ^F,2) |[K:treble] x8 | x8 | B,A,^CA, ^DA,EA, | %546
 B,A,^CA, ^DA, E z | x8 | x8 | x8 | x8 | x8 | x8 | x8 | x8 | x8 | x8 | x8 | x8 | x8 | x8 | %561
 z [Aa] z [Bb] z [^c^c'] z [dd'] | z [Dd] z [Ee] z [^F^f] z [Gg] | z [G,G] z [A,A] z [B,B] z [Cc] | %564
[K:bass] z [C,C] z [D,D] z [E,E] z [F,F] | x8 |[K:treble] x8 | x8 | x8 | x8 | x8 | x8 | x8 | x8 | %574
 x8 | z2 (^F^G A2) (EF | ^G) (A GA G) x x2 | x8 | x8 | x8 | x8 | e2 B2 e2 x2 | e2 B2 e2 x2 | %583
 e2 B2 e2 x2 | e2 B2 e2 x2 | A2 E2 A2 x2 | A2 E2 A2 x2 | A2 E2 A2 x2 | A2 E2 A2 x2 | D2 A,2 D2 x2 | %590
 D2 A,2 D2 x2 | D2 A,2 D2 x2 | D2 A,2 D2 x (B, | [A,D]2 [G,A,]2 [^F,B,]2) x (B, | %594
 [A,D]2 [G,A,]2 [^F,B,]2) x (B, | [A,D]2 [G,A,]2 [^F,B,]2) x (B, | [A,D]2 [G,A,]2 [^F,B,]2) x E | %597
 ^F2 G2 FE E (E | E2 D2 !courtesy!=CD E) z | !courtesy!=FG!>(! A2 G2 G2!>)! | CD E2 D2 D2 | %601
 G,A, B,2 A,2 A,2 | x2[K:bass] x6 |[K:treble] B2 A z G2 F z | E2 D z C2 _B, x | %605
 x2 [A,C] z [DF] z [GB] z | ([Ac]2 [G_B]2 [^FA]2 [=EG]2) | %607
 ([D!courtesy!=F]2 [C_E]2 [=B,D]2 [A,C]2) | ([!courtesy!=EG]2 [DF]2 [^CE]2 [=B,D]2) | x8 | %610
 !>!A, z !>!A, z !>!^F, z !>!F, z |[K:bass] E, z E, z D, z !>!D, z |[K:treble] x8 | _B,4- B,2 C2 | %614
 D4- D2 x2 | x8 | B,4- B, x x2 | x8 | x8 | x8 | x8 | x8 | x8 | x8 | x8 | (^F4 ^f2 ^c2) | %626
 (A4 a2 e2) | (d4 d'2 a2) | x8 | x8 | x8 | (B2 c2) (G2 A2) | (E2 !courtesy!=F2) (C2 D2) | %633
 .G.E.D.G .E.D G z | .C.A,.G,.C .A,.G, C z | x8 | x8 | x8 | x8 | !tenuto!.d4- d2 !tenuto!.^c2 | %640
 !tenuto!.B4 !tenuto!.^c4 | !>!d8 | !tenuto!.D4- D2 z2 | x8 | x8 | x8 | x8 | x8 | x8 | %649
 [G,B,]2 [A,C]2 [B,D]2 [CE]2 | [G,B,]2 [A,C]2 [B,D]2 [CE]2 | x8 | x8 | x8 | x8 | %655
[K:bass] .E2!pp!"_subito" .D2 .C2 .B,2 | .C2!pp! .B,2 .A,2 .G,2 | %657
 .[E,A,]2!>(! .[E,A,]2 .[E,A,]2 .[E,A,]2!>)! | .[E,A,]2!>(! .[E,A,]2 .[E,A,]2 .[E,A,]2!>)! | %659
 .[E,A,]2!pp! .[E,A,]2 .[E,A,]2 .[E,A,]2 | .[E,A,]2 .[E,A,]2 .[E,A,]2 .[E,A,]2 | %661
 .[E,A,]2!pp! .[E,A,]2 .[E,A,]2 .[E,A,]2 | .[E,A,]2!pp! .[E,A,]2 .[E,A,]2 .[E,A,]2 | %663
 .[E,A,]2!pp! .[E,A,]2 .[E,A,]2 .[E,A,]2 | .[E,A,]2!pp! .[E,A,]2 .[E,A,]2 .[E,A,]2 | %665
 .[E,A,]2 .[E,A,]2 .[E,A,]2 .[E,A,]2 | .[E,A,]2 .[E,A,]2 .[E,A,]2 .[E,A,]2 | %667
 .[E,A,]2 .[E,A,]2 .[E,A,]2 .[E,A,]2 | .[^F,B,]2!pp! .[F,B,]2 .[F,B,]2 .[F,B,]2 | %669
 .[^F,B,]2!mp! .[F,B,]2 .[F,B,]2 .[F,B,]2 | .[^F,B,]2!mp! .[F,B,]2 .[F,B,]2 .[F,B,]2 | %671
 .[^F,B,]2!p! .[F,B,]2 .[F,B,]2 .[F,B,]2 | .[E,A,]2!p! .[E,A,]2 .[E,A,]2 .[E,A,]2 | %673
 .[E,A,]2!pp! .[E,A,]2 .[E,A,]2 .[E,A,]2 |[K:treble] .[B,^E]2!pp! .[B,^F]2 .[B,E]2 .[B,F]2 | %675
 .[B,^E]2!pp! .[B,^F]2 .[B,E]2 .!fermata![B,F]2 |] %676
V:6
 x4 | x4 | x4 | x4 | x4 | x4 | x4 | x4 | x4 | x4 | x4 | x4 | x4 | !>!^c4 | x4 | x4 | x4 | x2 B^c | %18
 da e2 | x4 | x4 | x4 | x4 | x4 | x4 | x4 | x4 | x4 | x4 | x4 | x4 | x4 | x4 |[K:bass] x4 | x4 | %35
 x4 | x4 | x4 |[K:treble] x4 | x4 | x4 | x4 | x4 | x4 | x4 | x4 | x4 | x4 | x4 | x4 | x4 | x4 | %52
 x4 | x4 | x4 | x4 | x4 | x4 | x4 | x4 | x4 | x4 | x4 | x4 | x4 | x4 | x4 | x4 | x4 | a4 | ^f4 | %71
 ^d4 |[K:bass] x4 | x4 | x4 | x4 | x4 | x4 | x4 | x4 | x4 | x4 |[K:treble] x4 | x4 | x4 | x4 | %86
 eb ^f2 |[K:bass] x4 | x4 |[K:treble] x4 | x4 | x4 | x4 | x4 | x4 | x4 | x4 | x4 | x4 | x4 | x4 | %101
 x4 | x4 | x4 | x4 | x4 | x4 |[K:bass] x4 | x4 |[K:treble] x4 | x4 | x4 | x4 | x4 |!8va(! x4 | %115
 x4!8va)! | x4 | x4 | x4 | x4 | x4 | x4 | x4 | x4 | x4 | x4 | x4 | x4 | x4 | x4 | x4 | x4 | x4 | %133
 x4 | x4 | x4 | x4 | x4 | x4 | x4 | x4 | x4 | x4 | x4 | x4 | x4 | x4 | x4 | x4 | x4 | x4 | x4 | %152
 x4 | x4 | x4 | x4 | x4 | x4 | x4 | x4 | x4 | x4 | x4 ||[M:3/4] x6 | x6 | x6 | x6 | x6 | x6 | %169
[K:bass] x6 |[K:treble] x6 | x6 | x6 | x6 | x6 | x6 |][M:6/8] x6 | x6 | x6 | x6 | x6 | x6 | x6 | %183
 x6 | x6 | x6 | x6 | x6 | x6 | x6 | x6 | x6 | x6 | x6 |[K:bass] x6 |[K:treble] x6 | x6 | x6 | x6 | %199
 x6 | x6 | x6 | x6 | x6 | x6 | x6 | x5 D | x6 | x6 | x6 | x6 | x6 | x6 | x6 | x6 | x6 | x6 | x6 | %218
 x6 | x6 | x6 | x6 | x6 | x6 | x6 | x6 | x6 | x6 | x6 | x6 | x6 | x6 | x6 | x6 | x6 | x6 | x6 | %237
 x6 | x6 | x6 | x6 | x6 | x6 |[K:bass] x6 | x6 | x6 | x6 |[K:treble] x6 | x6 | x6 | x6 | x6 | x6 | %253
 x6 |!8va(! x6 | x5!8va)! x | x6 | x6 | x6 | x6 | x6 | x6 | x6 | x6 | x6 | x6 | x5[K:bass] x | x6 | %268
 x6 | x6 | x6 | x5[K:treble] x | x6 | x6 | x6 | x6 | x6 | x6 | x6 | x6 | x6 | x6 | x6 | x6 | x6 | %285
 x6 | x6 | x6 | x6 | x6 | x6 | x6 | x6 | x6 | x6 | x6 | x6 | x6 | x6 | x6 | x6 | x6 | x6 | x6 | %304
 x6 | x6 | x6 | x6 | x6 | x6 | x6 | x6 | x6 | x6 | x6 | x6 | x6 | x6 | x6 | x6 | x6 | x6 | x6 | %323
 x6 | x6 | x6 | x6 | x6 | x6 | x6 | x6 | x ^c2 z B2 | x6 | x6 | x6 | x6 | x6 | x6 | x6 | x6 | x6 | %341
 x6 | x6 | x6 | x6 | x6 | x6 | x6 | x6 | x6 | x6 | x6 | x6 | x6 | x6 | x6 | x6 | x6 | x6 | x6 | %360
 x6 | x6 | x6 | x6 | x6 | x6 | x6 | x6 | x6 | x6 | x6 | x6 | x6 | x6 | x6 | x6 | x6 | x6 | x6 | %379
 x6 | x6 | x6 |][M:4/4] x8 | x8 | x8 | x8 | x8 | x8 | x8 |[K:bass] x8 |[K:treble] x8 | x8 | x8 | %393
 x8 | x8 | x8 | x8 | x8 | x8 | x8 | x8 | x8 | x8 | x8 | x8 | x8 | x8 | x8 | x8 |[K:bass] x8 | x8 | %411
 x8 | x6[K:treble] x2 | x8 | x8 | x8 | x8 | x8 | x8 | x8 | x8 | x8 | x8 | x8 | x8 | x8 | x8 | x8 | %428
[K:bass] x8 | x8 | x8 | x8 | x5[K:treble] x3 | x8 | x8 | x8 | x7[K:bass] x | x8 | x8 | x8 | x8 | %441
[K:treble] x8 | x8 | x8 | x8 | x8 | x8 | x8 | x8 | x8 | x8 | x8 | x8 | x8 | x8 | x8 | x8 | x8 | %458
 x8 | x8 | x8 | x8 | x8 | x8 | x8 | x8 | x8 | x8 |[K:bass] x4[K:treble] x4 | x8 | x8 | x8 | x8 | %473
 x8 | x8 |[K:bass] x8 | x8 |[K:treble] x8 | x8 | x8 | x8 | x8 | x8 | x8 | x8 | x8 | x8 | x8 | x8 | %489
 x8 | x8 | x8 | x8 | x8 | x8 | x8 |[K:bass] x7[K:treble] x | x8 | x8 | x8 | x8 | x8 | x8 | x8 | %504
 x8 | x8 | x8 | x8 | x8 | x8 | x8 | x8 | x8 | x8 | x8 | x8 | x8 | x8 | x8 | x8 | x8 | x8 | x8 | %523
 x8 | x8 | x8 | x8 | x8 | x8 | x8 | x8 | x8 | x8 | x8 | x8 | x8 | x8 | x8 | x8 | x8 | x8 | x8 | %542
[K:bass] x8 |[K:treble] x8 | x8 | x8 | x8 | x8 | x8 | x8 | x8 | x8 | x8 | x8 | x8 | x8 | x8 | x8 | %558
 x8 | x8 | x8 | x8 | x8 | x8 |[K:bass] x8 | x8 |[K:treble] x8 | x8 | x8 | x8 | x8 | x8 | x8 | x8 | %574
 x8 | x8 | x8 | x8 | x8 | x8 | x8 | x8 | x8 | x8 | x8 | x8 | x8 | x8 | x8 | x8 | x8 | x8 | x8 | %593
 x8 | x8 | x8 | x8 | x8 | x8 | x8 | x8 | x8 | x2[K:bass] x6 |[K:treble] x8 | x8 | x8 | x8 | x8 | %608
 x8 | x8 | x8 |[K:bass] x8 |[K:treble] x8 | x8 | x8 | x8 | x8 | x8 | x8 | x8 | x8 | x8 | x8 | x8 | %624
 x8 | x8 | x8 | x8 | x8 | x8 | x8 | x8 | x8 | x8 | x8 | x8 | x8 | x8 | x8 | x8 | x8 | x8 | x8 | %643
 x8 | x8 | x8 | x8 | x8 | x8 | x8 | x8 | x8 | x8 | x8 | x8 |[K:bass] x8 | x8 | x8 | x8 | x8 | x8 | %661
 x8 | x8 | x8 | x8 | x8 | x8 | x8 | x8 | x8 | x8 | x8 | x8 | x8 |[K:treble] x8 | x8 |] %676

